!!!!SEGMENT: pl-kk--kk-i-35--001-003_anonim--missa-patrem.krn
!!!id: 16xx:1336
!!!COM: Anonim
!!!COM-rism: pe30004985
!!!CDT:
!!!CNT:
!!!OTL: Missa – Patrem
!!!PDT:
!!!SMS-siglum: PL-Kk
!!!SMS-shelfmark: Kk.I.35
!!!SMS-variant:
!!!SMS-altvar:
!!!NIFC-rismID: 1001154769
!!!system-decoration: [(s1,s2,s3,s4)]s5
**kern	**fba	**kern	**text	**kern	**text	**kern	**text	**kern	**text
*part5	*part5	*part4	*part4	*part3	*part3	*part2	*part2	*part1	*part1
*staff5	*staff5	*staff4	*staff4	*staff3	*staff3	*staff2	*staff2	*staff1	*staff1
*I"[Organo]	*	*I"[Basso]	*	*I"[Tenore]	*	*I"[Alto]	*	*I"[Canto]	*
*I'[Org]	*	*I'[B]	*	*I'[T]	*	*I'[A]	*	*I'[C]	*
*clefF4	*	*clefF4	*	*clefC4	*	*clefC3	*	*clefC1	*
*k[]	*	*k[]	*	*k[]	*	*k[]	*	*k[]	*
*M2/1	*	*M2/1	*	*M2/1	*	*M2/1	*	*M2/1	*
*met(C|)	*	*met(C|)	*	*met(C|)	*	*met(C|)	*	*met(C|)	*
=1	=1	=1	=1	=1	=1	=1	=1	=1	=1
*2\right	*	*2\right	*	*	*	*	*	*2\right	*
!!LO:TX:a:t=P:problem:all\right:global
!!LO:TX:a:t=P:problem:w źródle kaudy półnut czasami również po lewej stronie:global
!LO:TX:a:t=P:w źródle, w cyfrowaniu organ pojawiają się dziwne znaki, nieprzypominające cyfr [możliwe różne kombinacje zastosowane przez skryptora]:problem	!	!	!	!	!	!	!	!	!
!LO:TX:t=P:problem:w źródle inicjał P na początku pięciolinii	!	!	!	!	!	!	!	!	!
!	!	!LO:TX:t=P:problem:w źródle inicjał P na początku pięciolinii	!	!LO:TX:t=P:problem:w źródle inicjał P na początku pięciolinii	!	!	!	!	!
!	!	!	!	!	!	!LO:TX:t=P:problem:w źródle inicjał P na początku pięciolinii	!	!LO:TX:t=P:problem:w źródle inicjał P na początku pięciolinii	!
!LO:TX:b:Bi:t=Patrem	!	!	!	!	!	!	!	!	!
1AA	.	1AA	Pa-	0r	.	0r	.	0a	Pa-
2C/	.	2C\	-trem	.	.	.	.	.	.
!LO:TX:t=P:problem:kreska pseudotaktowa	!	!	!	!	!	!	!	!	!
2D/	.	2D\	Om-	.	.	.	.	.	.
=2	=2	=2-	=2-	=2-	=2-	=2-	=2-	=2-	=2-
*	*	*	*	*2\right	*	*2\right	*	*	*
2D/	.	2D\	-ni-	0A	Pa-	1A	Pa-	0a	-trem
2C/	.	2C\	-po-	.	.	.	.	.	.
!	!	!	!	!	!	!LO:TX:b:t=P:problem:# below	!	!	!
2F\	.	2F\	-ten-	.	.	2c#X/	-trem	.	.
4D\	.	4D\	.	.	.	2d/	Om-	.	.
!LO:TX:t=P:problem:kreska pseudotaktowa	!	!	!	!	!	!	!	!	!
4E\	.	4E\	.	.	.	.	.	.	.
=3	=3	=3-	=3-	=3-	=3-	=3-	=3-	=3-	=3-
4F\	6	4F\	.	0A	-trem	2d/	-ni-	2r	.
4G\	.	4G\	.	.	.	.	.	.	.
!LO:TX:b:t=P:problem:w źródle # cyfrowania pod nutą	!	!	!	!	!	!LO:TX:b:t=P:problem:# below	!	!	!
2A\	#	2A\	.	.	.	2c#X/	-po-	2e/	Om-
!LO:TX:t=P:problem:kreska pseudotaktowa	!	!	!	!	!	!	!	!	!
1D	-n	1D	.	.	.	2.d\	-ten-	2.f/	-ni-
.	.	.	.	.	.	4e\	.	4g/	-po-
=4	=4	=4-	=4-	=4-	=4-	=4-	=4-	=4-	=4-
2AA/	.	1AA	-tem	2r	.	2f\	.	2a/	-ten-
2A\	.	.	.	2E/	Om-	2e\	.	2c#X/	.
2.F\	.	1r	.	2.F/	-ni-	1d	.	1d	-tem
!LO:TX:t=P:problem:kreska pseudotaktowa	!	!	!	!	!	!	!	!	!
4G\	.	.	.	4G/	-po-	.	.	.	.
=5	=5	=5-	=5-	=5-	=5-	=5-	=5-	=5-	=5-
2A\	.	2r	.	2A/	-ten-	1A	-tem	1r	.
2AA/	.	2A\	fac-	2C#X/	.	.	.	.	.
!LO:TX:t=P:problem:kreska pseudotaktowa	!	!	!	!	!	!	!	!	!
1D	-n	2F\	-to-	1D	-tem	2r	.	2r	.
.	.	2D\	-re(m)	.	.	2f\	fac-	2dd\	fac-
=6	=6	=6-	=6-	=6-	=6-	=6-	=6-	=6-	=6-
1A	.	1A	Cae-	2r	.	2e\	-to-	2cc\	-to-
.	.	.	.	2c\	.	2cny\	-rem	2a\	-rem
!LO:TX:t=P:problem:kreska pseudotaktowa	!	!	!	!	!	!	!	!	!
1G	.	1G	-li	2B\	.	2d\	Cae-	2dd\	cae-
.	.	.	.	2G\	.	2.g\	.	2.ee\	.
=7	=7	=7-	=7-	=7-	=7-	=7-	=7-	=7-	=7-
1E	.	1E	Et	2B\	.	.	.	.	.
.	.	.	.	.	.	4f\	.	4dd\	.
.	.	.	.	1c	.	4e\	-li	4cc\	.
.	.	.	.	.	.	4d\	.	4b\	.
!	!	!	!	!	!	!LO:SIC:v:t=custos f	!	!	!
2F\	.	2F\	ter-	.	.	2c\	et	4a\	.
.	.	.	.	.	.	.	.	4b\	-li
!	!	!	!	!	!	!LO:LB:g=original	!	!	!
!LO:SIC:v:t=custos E	!	!LO:SIC:v:t=custos E	!	!	!	!	!	!	!
2D\	.	2D\	.	4d\	.	2f\	ter-	1a\	et
.	.	.	.	4c\	.	.	.	.	.
!LO:LB:g=original	!	!LO:LB:g=original	!	!	!	!	!	!	!
=8-	=8-	=8-	=8-	=8-	=8-	=8-	=8-	=8-	=8-
!LO:TX:b:t=P:problem:w źródle # cyfrowania pod nutą	!	!	!	!	!	!	!	!	!
1E	8 #	1E	.	4B\	.	1e	-rae	.	.
.	7 x	.	.	4A\	.	.	.	.	.
!	!	!	!	!	!	!	!	!LO:SIC:v:t=custos a	!
.	.	.	.	2B\	.	.	.	2g/	ter-
!	!	!	!	!	!	!	!	!LO:LB:g=original	!
!LO:TX:t=P:problem:kreska pseudotaktowa	!	!	!	!	!	!	!	!	!
!	!	!	!	!LO:SIC:v:t=custos A	!	!	!	!	!
1AA	.	0AA	-rae	1A	.	2r	.	0a	-rae
.	.	.	.	.	.	1e\	Vi-	.	.
!	!	!	!	!LO:LB:g=original	!	!	!	!	!
=9	=9	=9-	=9-	=9-	=9-	=9-	=9-	=9-	=9-
1AA	.	.	.	2r	.	.	.	.	.
.	.	.	.	1A	Vi-	2e\	-ſi	.	.
!LO:TX:t=P:problem:kreska pseudotaktowa	!	!	!	!	!	!	!	!	!
1A	6	00r	.	.	.	2.f\	-bi-	2r	.
.	.	.	.	2A\	-ſi-	.	.	1a\	Vi-
.	.	.	.	.	.	4f\	-li-	.	.
=10	=10	=10-	=10-	=10-	=10-	=10-	=10-	=10-	=10-
1c	.	.	.	2.c\	-bi-	2e\	-um	.	.
.	.	.	.	.	.	2.a\	Om-	2a\	-ſi
.	.	.	.	4c\	-li-	.	.	.	.
!LO:TX:t=P:problem:kreska pseudotaktowa	!	!	!	!	!	!	!	!	!
1F	.	.	.	1F	-u(m)	.	.	2.cc\	-bi-
.	.	.	.	.	.	4g\	.	.	.
.	.	.	.	.	.	4f\	.	.	.
.	.	.	.	.	.	4e\	.	4cc\	-li-
=11	=11	=11-	=11-	=11-	=11-	=11-	=11-	=11-	=11-
*	*	*	*	*lig	*	*	*	*	*
1F	.	.	.	1F	Om-	4f\	.	2a\	-um
.	.	.	.	.	.	4g\	.	.	.
.	.	.	.	.	.	4a\	.	4dd\	Om-
.	.	.	.	.	.	4f\	.	4cc\	.
*	*	*	*	*col	*	*	*	*	*
!LO:TX:t=P:problem:kreska pseudotaktowa	!	!	!	!	!	!	!	!	!
1G	6	1r	.	2.G/	.	4e\	.	2.b-X\	.
.	5	.	.	.	.	4d\	.	.	.
.	.	.	.	.	.	1d\	.	.	.
*	*	*	*	*Xlig	*	*	*	*	*
.	.	.	.	4G/	-ni-	.	.	4b-\	-ni-
*	*	*	*	*Xcol	*	*	*	*	*
=12	=12	=12-	=12-	=12-	=12-	=12-	=12-	=12-	=12-
1A	.	2r	.	1A	-u(m)	.	.	0a	-u(m)
!	!	!	!	!	!	!LO:TX:b:t=P:problem:# below	!	!	!
.	.	1A	Et	.	.	2c#X/	-ni-	.	.
!LO:TX:t=P:problem:kreska pseudotaktowa	!	!	!	!	!	!	!	!	!
!LO:TX:b:t=P:problem:w źródle # cyfrowania pod nutą	!	!	!	!	!	!	!	!	!
1D	#	.	.	2r	.	1d	-u(m)	.	.
.	.	2F#X\	in-	1d\	Et	.	.	.	.
=13	=13	=13-	=13-	=13-	=13-	=13-	=13-	=13-	=13-
1G	.	1G	-Vi-	.	.	2r	.	00r	.
.	.	.	.	2B\	In-	1g	Et	.	.
!LO:TX:t=P:problem:kreska pseudotaktowa	!	!	!	!	!	!	!	!	!
1C	.	1C	-ſi-	2.c\	-Vi-	.	.	.	.
.	.	.	.	.	.	2e\	in-	.	.
.	.	.	.	4A\	-ſi-	.	.	.	.
=14	=14	=14-	=14-	=14-	=14-	=14-	=14-	=14-	=14-
*	*	*lig	*	*	*	*	*	*	*
1D	6 x	1D	-bi-	4B\	-bi-	2d\	-Vi-	.	.
.	5 x	.	.	4A\	.	.	.	.	.
.	.	.	.	1A	.	4d\	-ſi-	.	.
!	!	!	!	!	!	!LO:SIC:v:t=custos B	!	!	!
.	.	.	.	.	.	4cny\	.	.	.
!	!	!	!	!	!	!LO:LB:g=original	!	!	!
*	*	*col	*	*	*	*	*	*	*
!LO:TX:t=P:problem:kreska pseudotaktowa	!	!	!	!	!	!	!	!	!
!LO:TX:b:t=P:problem:w źródle # cyfrowania pod nutą	!	!	!	!	!	!	!	!	!
1E	8 #	2.E\	.	.	.	2.B/	-bi-	.	.
!	!	!	!	!LO:TX:b:t=P:problem:# below	!	!	!	!	!
.	7 x	.	.	2G#X/	-li-	.	.	.	.
*	*	*Xlig	*	*	*	*	*	*	*
.	.	4E\	-li-	.	.	4B/	-li-	.	.
*	*	*Xcol	*	*	*	*	*	*	*
=15	=15	=15-	=15-	=15-	=15-	=15-	=15-	=15-	=15-
!	!	!	!	!	!	!LO:TX:b:t=P:problem:# below	!	!	!
2AA/	.	2AA/	-u(m)	2A\	-u(m)	2c#/	-u(m)	2r	.
!LO:TX:b:Bi:t=Et in Unu(m)	!	!	!	!	!	!	!	!	!
!	!	!	!	!LO:TX:b:t=P:problem:# below	!	!	!	!	!
!LO:TX:b:t=P:problem:w źródle # cyfrowania pod nutą	!	!	!	!	!	!	!	!	!
1AA	#	1AA	Et	1c#X	Et	1e	Et	1a	Et
!LO:TX:t=P:problem:kreska pseudotaktowa	!	!	!	!	!	!	!	!	!
2AA/	.	2AA/	In	2c#\	In	2e\	in	2a\	In
=16	=16	=16-	=16-	=16-	=16-	=16-	=16-	=16-	=16-
2D/	.	2D/	U-	2d\	U-	4f\	U-	2a\	U-
.	.	.	.	.	.	4d\	-nu(m)	.	.
2BB/	6	2BB/	-nu(m)	2d\	-nu(m)	1f	Do-	2b-X\	-nu(m)
!LO:SIC:v:t=custos FF	!	!	!	!	!	!	!	!	!
1C	8	2.C/	Do-	2.cny\	Do-	.	.	2.g\	Do-
.	7	.	.	.	.	2e\	-mi-	.	.
.	.	4C/	-mi-	4c\	-mi-	.	.	4g\	-mi-
!LO:LB:g=original	!	!	!	!	!	!	!	!	!
=17-	=17-	=17-	=17-	=17-	=17-	=17-	=17-	=17-	=17-
!	!	!	!	!LO:SIC:v:t=custos d	!	!	!	!	!
2FF/	.	2FF/	-nu(m)	1c	-nu(m)	2f\	-nu(m)	1a	-nu(m)
1F	.	1Fny	Je-	.	.	1a	Je-	.	.
!	!	!	!	!LO:LB:g=original	!	!	!	!	!
!	!	!	!	!	!	!	!	!LO:SIC:v:t=custos a	!
.	.	.	.	1r	.	.	.	1a	Je-
!	!	!	!	!	!	!	!	!LO:LB:g=original	!
!LO:TX:t=P:problem:kreska pseudotaktowa	!	!	!	!	!	!	!	!	!
!	!	!LO:SIC:v:t=custos D	!	!	!	!	!	!	!
2C#X/	6	2C#X/	-ſu(m)	.	.	2e\	-su(m)	.	.
!	!	!LO:PB:g=original	!	!	!	!	!	!	!
=18	=18	=18-	=18-	=18-	=18-	=18-	=18-	=18-	=18-
2.D/	.	2.D/	chri-	2r	.	2.f\	Chriſ-	2a\	-su(m)
.	.	.	.	2.d\	fi-	.	.	1a	chris-
4C/	.	4Cny/	.	.	.	4e\	.	.	.
!LO:TX:t=P:problem:kreska pseudotaktowa	!	!	!	!	!	!	!	!	!
!LO:TX:b:t=P:problem:w źródle # cyfrowania pod nutą	!	!	!	!	!	!	!	!	!
1BB	7 #	1BB	.	.	.	1d	-tu(m)	.	.
.	6 x	.	.	4d\	-li-	.	.	.	.
.	.	.	.	2d\	-u(m)	.	.	2g\	.
=19	=19	=19-	=19-	=19-	=19-	=19-	=19-	=19-	=19-
1.AA	.	1AA	-ſtum	2c\	De-	2r	.	0a	-tu(m)
.	.	.	.	2A\	-i	2.a\	fi-	.	.
.	.	00r	.	2c\	U-	.	.	.	.
.	.	.	.	.	.	4a\	-li-	.	.
!LO:TX:t=P:problem:kreska pseudotaktowa	!	!	!	!	!	!	!	!	!
2D\	.	.	.	2d\	-ni-	2a\	-u(m)	.	.
=20	=20	=20-	=20-	=20-	=20-	=20-	=20-	=20-	=20-
2E\	.	.	.	4e\	-ge-	2g\	De-	2r	.
.	.	.	.	4d\	.	.	.	.	.
2C/	.	.	.	4c\	.	2e\	-i	2.a\	fi-
.	.	.	.	4B\	.	.	.	.	.
2AA/	.	.	.	4A/	.	2cny/	U-	.	.
.	.	.	.	4Gny/	.	.	.	4a\	-li-
!LO:TX:t=P:problem:kreska pseudotaktowa	!	!	!	!	!	!	!	!	!
!	!	!	!	!	!	!LO:SIC:v:t=custos B	!	!	!
2FF/	.	.	.	2F/	.	2A/	-ni-	2a\	-u(m)
!	!	!	!	!	!	!LO:LB:g=original	!	!	!
=21	=21	=21-	=21-	=21-	=21-	=21-	=21-	=21-	=21-
2GG/	.	.	.	2G/	.	2B/	-ge-	2g/	De-
2AA/	.	.	.	2A/	.	4c/	.	2e/	-i
.	.	.	.	.	.	4d/	.	.	.
4E\	.	0r	.	4E/	.	4e\	.	2g/	U-
4F\	.	.	.	4F/	.	4d\	.	.	.
!LO:TX:t=P:problem:kreska pseudotaktowa	!	!	!	!	!	!	!	!	!
2G\	7	.	.	2G/	.	1d\	.	2f/	-ni-
=22	=22	=22-	=22-	=22-	=22-	=22-	=22-	=22-	=22-
!LO:TX:a:Bi:t=a	!	!	!	!	!	!	!	!	!
!LO:TX:b:t=P:problem:w źródle # cyfrowania pod nutą	!	!	!	!	!	!	!	!	!
1A	#	.	.	2.A/	.	.	.	2.e/	-ge-
!	!	!	!	!	!	!LO:TX:b:t=P:problem:# below	!	!	!
.	.	.	.	.	.	2c#/	-ni-	.	.
.	.	.	.	4A/	-ni-	.	.	4e/	-ni-
!LO:TX:t=P:problem:kreska pseudotaktowa	!	!	!	!	!	!	!	!	!
!LO:TX:b:t=P:problem:w źródle # cyfrowania pod nutą	!	!	!	!	!	!	!	!LO:TX:b:t=P:problem:# below	!
1D	#	2r	.	2D/	-tu(m)	1d	-tu(m)	1f#	-tu(m)
.	.	2D/	Et	2F#X/	Et	.	.	.	.
=23	=23	=23-	=23-	=23-	=23-	=23-	=23-	=23-	=23-
2BB/	.	2BB/	ex	2D/	ex	0r	.	2dd\	Et
1E	.	1E	pat-	1G	pat-	.	.	2bny\	ex
.	.	.	.	.	.	.	.	1.ee	pa-
!LO:TX:t=P:problem:kreska pseudotaktowa	!	!	!	!	!	!	!	!	!
!	!	!	!	!LO:SIC:v:t=custos G	!	!	!	!	!
2C/	.	2C/	-re	2E/	-re	.	.	.	.
!	!	!	!	!LO:LB:g=original	!	!	!	!	!
=24	=24	=24-	=24-	=24-	=24-	=24-	=24-	=24-	=24-
2E\	.	4E\	na-	4G/	na-	1r	.	.	.
.	.	4F\	.	4A/	.	.	.	.	.
!LO:TX:a:t=P:w źródle półnuta poprawiona na całą nutę:problem	!	!	!	!	!	!	!	!	!
1G	.	1G	.	4B/	.	.	.	2dd\	-tre
.	.	.	.	4G/	.	.	.	.	.
.	.	.	.	1A	-tu(m)	2.A/	an-	1cc	na-
!	!	!LO:TX:b:t=P:problem:# below	!	!	!	!	!	!	!
!LO:TX:b:t=P:problem:w źródle # cyfrowania pod nutą	!	!	!	!	!	!	!	!	!
2F#y\	2 #	2F#X\	.	.	.	.	.	.	.
.	.	.	.	.	.	4A/	-te	.	.
!LO:LB:g=original	!	!	!	!	!	!	!	!	!
=25-	=25-	=25-	=25-	=25-	=25-	=25-	=25-	=25-	=25-
!LO:TX:t=P:problem:kreska pseudotaktowa	!	!	!	!	!	!	!	!	!
0G	.	0G	-tu(m)	1r	.	2B/	Om-	1b	-tu(m)
.	.	.	.	.	.	4B/	-ni-	.	.
.	.	.	.	.	.	4G/	-(a)	.	.
.	.	.	.	2.G/	an-	2.g\	ſae-	1r	.
.	.	.	.	4G/	-te	4f\	.	.	.
=26	=26	=26-	=26-	=26-	=26-	=26-	=26-	=26-	=26-
2A\	.	0r	.	2A/	Om-	2.e\	.	2.e/	an-
4G\	6	.	.	4G/	-ni-	.	.	.	.
!	!	!	!	!	!	!	!	!LO:SIC:v:t=custos f	!
4A\	.	.	.	4A/	-a	4e\	-cu-	4e/	-te
!	!	!	!	!	!	!	!	!LO:LB:g=original	!
!LO:TX:t=P:problem:kreska pseudotaktowa:między nutą a kropką	!	!	!	!	!	!	!	!	!
1.D	.	.	.	1D	ſae-	0d	-la	2f/	Om-
.	.	.	.	.	.	.	.	4f/	-ni-
.	.	.	.	.	.	.	.	4d/	-a
=27	=27	=27-	=27-	=27-	=27-	=27-	=27-	=27-	=27-
.	.	2r	.	2.d\	.	.	.	4f/	ſae-
.	.	.	.	.	.	.	.	4g/	.
2D\	.	2D\	De-	.	.	.	.	1a	.
.	.	.	.	4c\	.	.	.	.	.
!LO:TX:t=P:problem:kreska pseudotaktowa	!	!	!	!	!	!	!	!	!
!LO:TX:b:t=P:problem:w źródle # cyfrowania pod nutą	!	!	!	!	!	!	!	!	!
1E	3 #	2E\	-u(m)	2.B\	.	1r	.	.	.
!	!	!	!	!	!	!	!	!LO:TX:b:t=P:problem:# below	!
.	7 x	2E\	de	.	.	.	.	2g#/	-cu-
.	.	.	.	4B\	-cu-	.	.	.	.
=28	=28	=28-	=28-	=28-	=28-	=28-	=28-	=28-	=28-
2.F\	.	2.Fny\	De-	1A	-la	2r	.	0a	-la
.	.	.	.	.	.	2cny\	De-	.	.
4E\	.	4E\	o	.	.	.	.	.	.
!LO:TX:t=P:problem:kreska pseudotaktowa	!	!	!	!	!	!	!	!	!
1D	7	1D	lu-	1r	.	2d\	-u(m)	.	.
!	!	!	!	!	!	!LO:SIC:v:t=custos e	!	!	!
.	6	.	.	.	.	2d\	de	.	.
!	!	!	!	!	!	!LO:LB:g=original	!	!	!
=29	=29	=29-	=29-	=29-	=29-	=29-	=29-	=29-	=29-
2C\	.	2C\	-men	2r	.	2e\	De-	0r	.
!	!	!LO:SIC:v:t=custos D	!	!	!	!	!	!	!
2E\	.	2E\	de	2G/	De-	4c\	-o	.	.
.	.	.	.	.	.	4g\	.	.	.
!	!	!LO:LB:g=original	!	!	!	!	!	!	!
!LO:TX:t=P:problem:kreska pseudotaktowa	!	!	!	!	!	!	!	!	!
!LO:TX:b:t=P:problem:w źródle # cyfrowania pod nutą	!	!	!	!	!	!	!	!	!
1D	4 #	2.D\	lu-	2A\	-u(m)	2g\	lu-	.	.
!	!	!	!	!	!	!LO:TX:b:t=P:problem:# below	!	!	!
.	.	.	.	2A\	de	2f#\	-men	.	.
.	.	4D\	-mi-	.	.	.	.	.	.
=30	=30	=30-	=30-	=30-	=30-	=30-	=30-	=30-	=30-
1GG	.	1GG	-ne	2B\	De-	2.g\	De	1r	.
.	.	.	.	4G\	-o	.	.	.	.
.	.	.	.	4d\	lu-	4fny\	lu-	.	.
!LO:TX:t=P:problem:kreska pseudotaktowa	!	!	!	!	!	!	!	!	!
!LO:TX:b:t=P:problem:w źródle # cyfrowania pod nutą	!	!	!	!	!	!	!	!	!
1AA	4 #	0r	.	2d\	-men	2e\	-mi-	1.a	De-
.	.	.	.	2c\	de	2e\	-ne	.	.
=31	=31	=31-	=31-	=31-	=31-	=31-	=31-	=31-	=31-
1D	6	.	.	2.d\	lu-	2.f\	.	.	.
.	.	.	.	.	.	.	.	2a\	-u(m)
.	.	.	.	4c\	-mi-	4e\	.	.	.
!LO:TX:t=P:problem:kreska pseudotaktowa	!	!	!	!	!	!	!	!	!
1GG	.	1.GG	De-	1B	-ne	2d\	.	2dd\	ve-
.	.	.	.	.	.	1d\	De-	2b\	-ru(m)
!	!	!	!	!LO:LB:g=original	!	!	!	!	!
=32	=32	=32-	=32-	=32-	=32-	=32-	=32-	=32-	=32-
1GG	.	.	.	1G	De-	.	.	4dd\	de
.	.	.	.	.	.	.	.	4cc\	.
.	.	2GG/	-u(m)	.	.	2d\	-u(m)	4b\	.
.	.	.	.	.	.	.	.	4a\	.
2C/	.	2C/	Ve-	2G/	-u(m)	2e\	Ve-	2g\	.
!LO:TX:t=P:problem:kreska pseudotaktowa	!	!	!	!	!	!	!	!	!
2AA/	.	2AA/	-ru(m)	2c\	ve-	2c\	-ru(m)	1a\	.
=33	=33	=33-	=33-	=33-	=33-	=33-	=33-	=33-	=33-
1.D	.	2D\	de	2A\	-ru(m)	2f\	de	.	.
.	.	1D	De-	2d\	de	1f	De-	2.b\	De-
.	.	.	.	2d\	De-	.	.	.	.
.	.	.	.	.	.	.	.	4a\	-o
!LO:SIC:v:t=custos E	!	!	!	!	!	!	!	!	!
2F\	6	2F\	-o	2A\	-o	2d\	-o	1a\	Ve-
!LO:LB:g=original	!	!	!	!	!	!	!	!	!
=34-	=34-	=34-	=34-	=34-	=34-	=34-	=34-	=34-	=34-
!LO:TX:t=P:problem:kreska pseudotaktowa	!	!	!	!	!	!	!	!	!
!LO:TX:b:t=P:problem:w źródle # cyfrowania pod nutą	!	!	!	!	!	!	!	!	!
0E	4	0E	Ve-	2c\	Ve-	0e	Ve-	.	.
.	7	.	.	4B\	.	.	.	4g#X/	.
.	.	.	.	4A\	.	.	.	4f#X/	.
!	!	!	!	!	!	!	!	!LO:TX:b:t=P:problem:# below	!
.	.	.	.	1B	-ro	.	.	1g#X	.
=35	=35	=35-	=35-	=35-	=35-	=35-	=35-	=35-	=35-
!	!	!	!	!	!	!	!	!LO:SIC:v:t=custos a	!
2AA/	.	1AA	-ro	2r	.	1c	-ro	1a	-ro
!LO:TX:b:Bi:t=Genitu(m)	!	!	!	!	!	!	!	!	!
1AA	.	.	.	2.A\	Ge-	.	.	.	.
!	!	!	!	!	!	!	!	!LO:LB:g=original	!
!	!	!	!	!	!	!LO:SIC:v:t=custos d	!	!	!
.	.	2r	.	.	.	0r	.	00r	.
.	.	.	.	4c\	-ni-	.	.	.	.
!LO:TX:t=P:problem:kreska pseudotaktowa	!	!	!	!	!	!	!	!	!
2.E\	.	2.E\	Ge-	4B\	-tu(m)	.	.	.	.
.	.	.	.	4G\	non	.	.	.	.
=36-	=36-	=36-	=36-	=36-	=36-	=36-	=36-	=36-	=36-
.	.	.	.	2B\	fac-	.	.	.	.
4G\	.	4G\	-ni-	.	.	.	.	.	.
4F\	.	4F\	-tu(m)	2A\	-tu(m)	.	.	.	.
4D\	.	4D\	no(n)	.	.	.	.	.	.
!	!	!	!	!	!	!LO:PB:g=original	!	!	!
2F\	.	2F\	fac-	4A\	con-	2r	.	.	.
.	.	.	.	4c\	-ſub-	.	.	.	.
!LO:TX:t=P:problem:kreska pseudotaktowa	!	!	!	!	!	!	!	!	!
2G\	4	2G\	-tu(m)	4c\	-ſtan-	2.d\	Ge-	.	.
.	.	.	.	4B\	-ti-	.	.	.	.
=37	=37	=37-	=37-	=37-	=37-	=37-	=37-	=37-	=37-
2D\	.	4F\	Con-	4A\	-a-	.	.	.	.
.	.	4D\	-ſtan-	4B\	.	4f\	-ni-	.	.
2A\	.	4A\	-ti-	4c\	.	4e\	-tu(m)	.	.
!	!	!LO:SIC:v:t=custos F	!	!	!	!	!	!	!
.	.	4A\	-a-	4A\	.	4c\	non	.	.
!	!	!LO:LB:g=original	!	!	!	!	!	!	!
4F\	.	4F\	.	4B\	.	4d\	fac-	0r	.
!	!	!	!	!LO:SIC:v:t=custos d	!	!	!	!	!
4E\	.	4E\	.	4c\	.	4e\	-tu(m)	.	.
!	!	!	!	!LO:LB:g=original	!	!	!	!	!
4D\	.	4D\	.	4d\	.	4f\	con-	.	.
!LO:TX:t=P:problem:kreska pseudotaktowa	!	!	!	!	!	!	!	!	!
4G\	.	4G\	.	4B\	.	4d\	-ſub-	.	.
=38	=38	=38-	=38-	=38-	=38-	=38-	=38-	=38-	=38-
4E\	.	4E\	.	4c\	.	4e\	-ſtan-	.	.
4D\	.	4D\	.	4d\	.	4f\	-ti-	.	.
4C\	.	4C\	.	4e\	.	1g	-a-	.	.
4BB\	6	4BB\	-lem	4d\	.	.	.	.	.
2C\	.	2C\	pa-	2e\	.	.	.	2r	.
!LO:TX:t=P:problem:kreska pseudotaktowa	!	!	!	!	!	!	!	!	!
2D\	.	2D\	.	2d\	lem	2f\	-lem	4a\	per
.	.	.	.	.	.	.	.	4a\	quem
=39	=39	=39-	=39-	=39-	=39-	=39-	=39-	=39-	=39-
1AA	.	1.AA	-tri	2c\	.	1e	pa-	2.a\	Om-
.	.	.	.	2A\	pa-	.	.	.	.
.	.	.	.	.	.	.	.	4b\	-ni-
!LO:TX:t=P:problem:kreska pseudotaktowa	!	!	!	!	!	!	!	!	!
1AA	.	.	.	1A	-tri	1.e	-tri	2cc\	-a
*	*	*	*	*	*	*	*	*	*ij
.	.	4AA/	per	.	.	.	.	4cc\	per
.	.	4AA/	que(m)	.	.	.	.	4cc\	quem
=40	=40	=40-	=40-	=40-	=40-	=40-	=40-	=40-	=40-
2.AA/	.	2.AA/	Om-	1r	.	.	.	2.cc\	om-
.	.	.	.	.	.	4e\	per	.	.
4BB/	.	4BB/	-ni-	.	.	4e\	quem	4dd\	-ni-
!LO:SIC:v:t=custos C	!	!	!	!	!	!	!	!	!
1C	.	1.C	-a	2r	.	2.e\	Om-	1.ee	-a
.	.	.	.	4G/	per	.	.	.	.
.	.	.	.	4G/	que(m)	4f\	-ni-	.	.
!LO:LB:g=original	!	!	!	!	!	!	!	!	!
=41-	=41-	=41-	=41-	=41-	=41-	=41-	=41-	=41-	=41-
2C/	.	.	.	2.G/	om-	1.g	-a	.	.
*	*	*	*	*	*	*	*	*	*Xij
*	*	*	*ij	*	*	*	*	*	*
2.GG/	.	4GG/	per	.	.	.	.	1ee	fa-
.	.	4GG/	que(m)	4A/	-ni-	.	.	.	.
.	.	4GG/	Om-	4B\	-a	.	.	.	.
4AA/	.	4AA/	-ni-	4c\	.	.	.	.	.
!LO:TX:t=P:problem:kreska pseudotaktowa	!	!	!	!	!	!	!	!	!
2BB-X/	.	2BB-X/	-a	1d\	fa-	2g\	fa-	4dd\	.
.	.	.	.	.	.	.	.	4ee\	.
*	*	*	*Xij	*	*	*	*	*	*
=42	=42	=42-	=42-	=42-	=42-	=42-	=42-	=42-	=42-
!LO:TX:t=P:problem:kreska pseudotaktowa	!	!	!	!	!	!	!	!	!
!LO:TX:b:t=P:problem:w źródle # cyfrowania pod nutą	!	!	!	!	!	!	!	!	!
0AA	4 #	1.AA	fac-	.	.	2.f\	.	2ff\	.
!	!	!	!	!LO:TX:b:t=P:problem:# below	!	!	!	!	!
.	7 x	.	.	4c#X\	.	.	.	4ee\	.
.	.	.	.	4B\	.	4g\	.	4dd\	.
!	!	!	!	!LO:TX:b:t=P:problem:# below	!	!	!	!	!
.	.	.	.	2.c#X\	.	2a\	.	2.ee\	.
.	.	2AA/	-ta	.	.	2e\	-cta	.	.
.	.	.	.	4c#\	-cta	.	.	4ee\	-cta
=43	=43	=43-	=43-	=43-	=43-	=43-	=43-	=43-	=43-
!LO:TX:t=P:problem:kreska pseudotaktowa	!	!	!	!	!	!	!	!	!
!	!	!	!	!	!	!LO:TX:b:t=P:problem:# below	!	!	!
0D	.	0D	ſunt	1d	ſu(n)t	0f#X	ſunt	0dd	ſunt
.	.	.	.	2r	.	.	.	.	.
!	!	!	!	!LO:SIC:v:t=custos d	!	!	!	!	!
.	.	.	.	2A\	qui	.	.	.	.
!	!	!	!	!LO:LB:g=original	!	!LO:LB:g=original	!	!	!
=44	=44	=44-	=44-	=44-	=44-	=44-	=44-	=44-	=44-
*clefC4	*	*	*	*	*	*	*	*	*
1d	.	0r	.	2.d\	prop-	00r	.	2r	.
.	.	.	.	.	.	.	.	2a\	qui
.	.	.	.	4d\	-ter	.	.	.	.
!LO:TX:t=P:problem:kreska pseudotaktowa	!	!	!	!	!	!	!	!	!
1B	.	.	.	1B	nos	.	.	2.dd\	prop-
.	.	.	.	.	.	.	.	4dd\	-ter
=45	=45	=45-	=45-	=45-	=45-	=45-	=45-	=45-	=45-
!	!	!LO:SIC:v:t=custos C	!	!	!	!	!	!LO:SIC:v:t=custos ee	!
1e	.	1r	.	2.e\	ho-	.	.	1b	nos
.	.	.	.	4e\	-mi-	.	.	.	.
!	!	!LO:LB:g=original	!	!	!	!	!	!LO:LB:g=original	!
2c\	.	2r	.	4cny\	-nes	.	.	2.ee\	ho-
.	.	.	.	4c\	et	.	.	.	.
!LO:TX:t=P:problem:kreska pseudotaktowa	!	!	!	!	!	!	!	!	!
2C/	.	2C/	Qui	4B\	p(ro)p-	.	.	.	.
.	.	.	.	4c\	-(ter)	.	.	4ee\	-mi-
=46	=46	=46-	=46-	=46-	=46-	=46-	=46-	=46-	=46-
1F	.	2.F\	prop-	2A\	noſ-	2r	.	4cc\	-nes
.	.	.	.	.	.	.	.	4cc\	et
.	.	.	.	4A\	-tra(m)	2c\	Qui	4b\	p(ro)p-
.	.	4F\	-ter	4A\	ſa-	.	.	4cc\	-(ter)
1D	.	1D	nos	1d	-lu-	2.fny\	pro-	2dd\	noſ-
.	.	.	.	.	.	.	.	4dd\	-tra(m)
.	.	.	.	.	.	4f\	-pter	4a\	ſa-
=47-	=47-	=47-	=47-	=47-	=47-	=47-	=47-	=47-	=47-
*clefF4	*	*	*	*	*	*	*	*	*
1G	.	2.G\	ho-	2B\	-te(m)	1d	nos	2b\	-lu-
.	.	.	.	4r	.	.	.	2b\	-tem
.	.	4G\	-mi-	4B\	deſ-	.	.	.	.
2E\	.	4E\	-neS	2e\	-cen-	2.g\	ho-	2r	.
.	.	4E\	et	.	.	.	.	.	.
4D\	.	4D\	p(ro)p-	4B\	-dit	.	.	4r	.
*	*	*	*	*	*ij	*	*	*	*
!LO:TX:t=P:problem:kreska pseudotaktowa	!	!	!	!	!	!	!	!	!
4E\	.	4E\	-(ter)	4B\	deſ-	4g\	-mi-	4b\	deſ-
=48	=48	=48-	=48-	=48-	=48-	=48-	=48-	=48-	=48-
2C/	.	2C/	noſ-	2c\	-cen-	4e\	-nes	2ee\	-cen-
.	.	.	.	.	.	4e\	et	.	.
4BB/	.	4BBny/	-tra(m)	4G/	-dit	4d\	p(rop-	2b\	-dit
*	*	*	*	*	*Xij	*	*	*	*
!LO:SIC:v:t=custos AA	!	!	!	!	!	!	!	!	!
4C/	.	4C/	ſa-	4G/	deſ-	4e\	-ter)	.	.
!LO:LB:g=original	!	!	!	!	!	!	!	!	!
2.AA/	.	2AA/	-lu-	2A\	-cen-	2c\	noſ-	2r	.
.	.	4AA/	-te(m)	4A\	-dit	4c\	-tra(m)	4r	.
*	*	*	*	*	*ij	*	*	*	*ij
!LO:TX:t=P:problem:kreska pseudotaktowa	!	!	!	!	!	!	!	!	!
4AA/	.	4AA/	deſ-	4A\	deſ-	4c\	ſa-	4cc\	deſ-
=49	=49	=49-	=49-	=49-	=49-	=49-	=49-	=49-	=49-
2D/	.	2D/	-cen-	2A\	-cen-	2f\	-lu-	2dd\	-cen-
2AA/	.	4AA/	-dit	4A\	-dit	2c\	-te(m)	2cc\	-dit
*	*	*	*	*	*Xij	*	*	*	*
*	*	*	*ij	*	*	*	*	*	*
.	.	4AA/	deſ-	4c\	deſ-	.	.	.	.
*	*	*	*	*	*	*	*	*	*Xij
2C/	.	2C/	-cen-	2e\	-cen-	4r	.	4r	.
.	.	.	.	.	.	4e\	de-	4gny\	deſ-
!LO:TX:t=P:problem:kreska pseudotaktowa	!	!	!	!	!	!	!	!	!
2GG/	6	4GG/	-dit	4B\	-dit	1g\	-scen-	2b\	-cen-
*	*	*	*Xij	*	*	*	*	*	*
!	!	!	!	!LO:SIC:v:t=custos c	!	!	!	!	!
.	.	4GG/	de	4B\	de	.	.	.	.
!	!	!	!	!LO:LB:g=original	!	!	!	!	!
=50	=50	=50-	=50-	=50-	=50-	=50-	=50-	=50-	=50-
!LO:TX:b:t=P:problem:w źródle # cyfrowania pod nutą	!	!	!	!	!	!	!	!	!
0AA	3 #	0AA	cae-	2c#X\	Cae-	.	.	2a\	-dit
.	4 x	.	.	1d	.	4f\	-dit	2a\	de
.	7 x	.	.	.	.	4e\	de	.	.
.	.	.	.	.	.	1e	Cae-	1a	Cae-
!	!	!	!	!LO:TX:b:t=P:problem:# below	!	!	!	!	!
.	.	.	.	2c#X\	.	.	.	.	.
=51-	=51-	=51-	=51-	=51-	=51-	=51-	=51-	=51-	=51-
!LO:TX:b:t=P:problem:w źródle # cyfrowania pod nutą	!	!	!	!	!	!	!	!	!
0D;>	#	0D;>	-lis	0d;<	-lis.	0f#X;<	-lis:	0a;<	-lis.
!	!	!LO:LB:g=original	!	!	!	!LO:LB:g=original	!	!LO:LB:g=original	!
=52||	=52||	=52||	=52||	=52||	=52||	=52||	=52||	=52||	=52||
*M2/1	*	*M2/1	*	*M2/1	*	*M2/1	*	*M2/1	*
*met(C|)	*	*met(C|)	*	*met(C|)	*	*met(C|)	*	*met(C|)	*
!LO:TX:t=P:problem:w źródle inicjał E na początku pięciolinii	!	!LO:TX:t=P:problem:w źródle inicjał E na początku pięciolinii	!	!	!	!	!	!	!
!	!	!	!	!LO:TX:t=P:problem:w źródle inicjał E na początku części	!	!	!	!	!
!	!	!	!	!	!	!LO:TX:t=P:problem:w źródle inicjał E na początku pięciolinii	!	!LO:TX:t=P:problem:w źródle inicjał E na początku pięciolinii	!
!LO:TX:t=P:problem:kreska pseudotaktowa	!	!	!	!	!	!	!	!	!
!LO:TX:b:Bi:t=Et Incarnat(us) eſt	!	!	!	!	!	!	!	!	!
0D	-n	0r	.	0D	Et	2A/	Et	1d	Et
.	.	.	.	.	.	1d	In-	.	.
.	.	.	.	.	.	.	.	1.a	In-
.	.	.	.	.	.	2f\	-Car-	.	.
=53	=53	=53-	=53-	=53-	=53-	=53-	=53-	=53-	=53-
!LO:TX:t=P:problem:kreska pseudotaktowa	!	!	!	!	!	!	!	!	!
0AA	-n	0AA	Et	1.A	In-	2f\	-na-	.	.
.	.	.	.	.	.	4e\	.	2cc\	-Car-
.	.	.	.	.	.	4d\	.	.	.
.	.	.	.	.	.	4e\	.	4cc\	-na-
.	.	.	.	.	.	4d\	.	4b\	.
.	.	.	.	2c\	-car-	4c\	.	4a\	.
.	.	.	.	.	.	8B\L	.	4g\	.
.	.	.	.	.	.	8c\J	.	.	.
=54	=54	=54-	=54-	=54-	=54-	=54-	=54-	=54-	=54-
1.D	.	1.D	In-	2.A\	-na-	2.d\	.	4f\	.
.	.	.	.	.	.	.	.	4g\	.
.	.	.	.	.	.	.	.	2a\	.
.	.	.	.	4G\	.	4e\	.	.	.
.	.	.	.	4F\	.	2.f\	.	4b\	.
!	!	!	!	!	!	!	!	!LO:TX:b:t=P:problem:# below	!
!	!	!	!	!	!	!	!	!LO:N:acc=#	!
.	.	.	.	4G\	.	.	.	4ccn\	.
!LO:TX:t=P:problem:kreska pseudotaktowa	!	!	!	!	!	!	!	!	!
2F\	.	2F\	-car-	1A\	.	.	.	1dd\	.
.	.	.	.	.	.	4g\	.	.	.
=55	=55	=55-	=55-	=55-	=55-	=55-	=55-	=55-	=55-
!LO:TX:t=P:problem:kreska pseudotaktowa	!	!	!	!	!	!	!	!	!
0D	.	1.D	-na-	.	.	4a\	.	.	.
.	.	.	.	.	.	4g\	.	.	.
*	*	*	*	*lig	*	*	*	*	*
.	.	.	.	1d	.	4f\	.	4a\	.
.	.	.	.	.	.	4e\	.	4g\	.
.	.	.	.	.	.	2.f\	.	4f\	.
.	.	.	.	.	.	.	.	4g\	.
.	.	2D\	-tus	1c\	.	.	.	1a\	.
.	.	.	.	.	.	4f\	-t(us)	.	.
*	*	*	*	*Xlig	*	*	*	*	*
=56	=56	=56-	=56-	=56-	=56-	=56-	=56-	=56-	=56-
!LO:TX:t=P:problem:kreska pseudotaktowa	!	!	!	!	!	!	!	!	!
!LO:TX:b:t=P:problem:w źródle # cyfrowania pod nutą	!	!	!	!	!	!	!	!	!
0E	6 #	0E	eſt	.	.	1e	eſt	.	.
.	5 x	.	.	4B\	.	.	.	4g\	tus
.	.	.	.	4A\	.	.	.	4f\	.
.	.	.	.	2.B\	.	2r	.	1.g	eſt
.	.	.	.	.	.	2e\	de	.	.
.	.	.	.	4B\	-tus	.	.	.	.
=57	=57	=57-	=57-	=57-	=57-	=57-	=57-	=57-	=57-
!	!	!	!	!LO:SIC:v:t=custos e	!	!	!	!	!
1A	6	0r	.	1A	eſt	2.f\	Spi-	.	.
.	5	.	.	.	.	.	.	2a\	de
.	.	.	.	.	.	4e\	-ri-	.	.
!	!	!	!	!LO:PB:g=original	!	!	!	!	!
2d\	6	.	.	0r	.	2d\	-tu	2.b\	Spi-
!	!	!	!	!	!	!LO:LB:g=original	!	!	!
!LO:TX:t=P:problem:kreska pseudotaktowa	!	!	!	!	!	!	!	!	!
2.e\	.	.	.	.	.	2.e\	San-	.	.
.	.	.	.	.	.	.	.	4a\	-ri-
=58	=58	=58-	=58-	=58-	=58-	=58-	=58-	=58-	=58-
!	!	!	!	!	!	!	!	!LO:SIC:v:t=custos f	!
.	.	2r	.	.	.	.	.	2g/	-tu
4d\	.	.	.	.	.	4d\	.	.	.
!	!	!	!	!	!	!	!	!LO:PB:g=original	!
2G\	7	2G\	de	.	.	1d	.	2f/	San-
!LO:TX:t=P:problem:kreska pseudotaktowa	!	!	!	!	!	!	!	!	!
!LO:TX:b:t=P:problem:w źródle # cyfrowania pod nutą	!	!	!	!	!	!	!	!	!
1A	7\	2.A\	Spi-	2r	.	.	.	1e	-cto
!	!	!	!	!	!	!LO:TX:b:t=P:problem:# below	!	!	!
.	.	.	.	2e\	de	2c#\	.	.	.
.	.	4G\	-ri-	.	.	.	.	.	.
=59	=59	=59-	=59-	=59-	=59-	=59-	=59-	=59-	=59-
1.D	.	2F\	-tu	2.f\	Spi-	1d	-cto	2r	.
.	.	4D\	San-	.	.	.	.	1a	Ex
.	.	4E\	.	4e\	-ri-	.	.	.	.
.	.	4F\	.	2d\	-tu	2r	.	.	.
.	.	4G\	.	.	.	.	.	.	.
!LO:SIC:v:t=custos E	!	!	!	!	!	!	!	!	!
2A\	.	2A\	.	2c\	Sanc-	1e\	Ex	2a\	Ma-
!LO:LB:g=original	!	!	!	!	!	!	!	!	!
=60-	=60-	=60-	=60-	=60-	=60-	=60-	=60-	=60-	=60-
1E	8	1E	-cto	1B	-to	.	.	2a\	-ri-
.	7	.	.	.	.	2e\	Ma-	2g\	-a
2D/	.	00r	.	00r	.	2d\	-ri-	4a\	Vir-
.	.	.	.	.	.	.	.	4b\	.
!LO:TX:t=P:problem:kreska pseudotaktowa	!	!	!	!	!	!	!	!	!
2C/	.	.	.	.	.	2cny\	-a	4cc\	.
.	.	.	.	.	.	.	.	4a\	.
=61	=61	=61-	=61-	=61-	=61-	=61-	=61-	=61-	=61-
1.D	.	.	.	.	.	4d\	vir-	4b\	.
.	.	.	.	.	.	4e\	.	4cc\	.
.	.	.	.	.	.	4f\	.	1dd	.
.	.	.	.	.	.	4d\	.	.	.
.	.	.	.	.	.	4f\	.	.	.
.	.	.	.	.	.	4g\	.	.	.
!LO:TX:t=P:problem:kreska pseudotaktowa	!	!	!	!	!	!	!	!	!
2AA/	.	.	.	.	.	1a\	.	2cc\	-gi-
=62	=62	=62-	=62-	=62-	=62-	=62-	=62-	=62-	=62-
1E	.	.	.	.	.	.	.	2b\	-ne
.	.	.	.	.	.	4g\	.	2.cc\	.
.	.	.	.	.	.	4f\	.	.	.
!LO:TX:t=P:problem:kreska pseudotaktowa	!	!	!	!	!	!	!	!	!
!	!	!LO:SIC:v:t=custos E	!	!	!	!	!	!	!
1A	.	1r	.	2r	.	2e\	.	.	.
.	.	.	.	.	.	.	.	4b\	.
.	.	.	.	2A\	Et	1f\	.	2a\	.
!	!	!LO:LB:g=original	!	!	!	!	!	!	!
=63	=63	=63-	=63-	=63-	=63-	=63-	=63-	=63-	=63-
2c\	4	2r	.	1c	ho-	.	.	0g	.
2E\	6	2E\	Et	.	.	2e\	-gi-	.	.
!LO:TX:t=P:problem:kreska pseudotaktowa	!	!	!	!	!	!	!	!	!
!	!	!	!	!	!	!LO:TX:t=P:problem:kreska oddechu na różnych liniach [rozdzielacz słów / znak oddechu]:global	!	!	!
1G	.	1G	ho-	2G\	-mo	2d,<\	-ne	.	.
*	*	*	*	*	*ij	*	*	*	*
.	.	.	.	2B\	Et	2d\	Et	.	.
=64	=64	=64-	=64-	=64-	=64-	=64-	=64-	=64-	=64-
2D\	.	2D\	-mo	1.d	ho-	1f	ho-	1r	.
2F\	6	2F\	fa-	.	.	.	.	.	.
2G\	.	2G\	.	.	.	1e	-mo	2r	.
!LO:TX:t=P:problem:kreska pseudotaktowa	!	!	!	!	!	!	!	!	!
2A\	.	2A\	.	2c\	-mo	.	.	2a\	Et
*	*	*	*	*	*Xij	*	*	*	*
=65	=65	=65-	=65-	=65-	=65-	=65-	=65-	=65-	=65-
*	*	*lig	*	*	*	*lig	*	*	*
1D	6 x	1D	.	4B\	fa-	1f	fac-	2dd\	ho-
.	5 x	.	.	4A\	.	.	.	.	.
.	.	.	.	1A	.	.	.	2cc\	-mo
*	*	*col	*	*	*	*col	*	*	*
!LO:TX:b:t=P:problem:w źródle # cyfrowania pod nutą	!	!	!	!	!	!	!	!	!
1E	4 #	2.E\	.	.	.	2.e\	.	2.b\	fac-
!	!	!	!	!LO:TX:b:t=P:problem:# below	!	!	!	!	!
.	7 x	.	.	2G#X/	-ct(us)	.	.	.	.
*	*	*Xlig	*	*	*	*Xlig	*	*	*
.	.	4E\	-ct(us)	.	.	4e\	-t(us)	4b\	-t(us)
*	*	*Xcol	*	*	*	*Xcol	*	*	*
=66-	=66-	=66-	=66-	=66-	=66-	=66-	=66-	=66-	=66-
!LO:TX:b:t=P:problem:w źródle # cyfrowania pod nutą	!	!	!	!	!	!	!	!	!
0AA;>	#	0AA;>	eſt.	0A;>	eſt.	0e;<	eſt	0cc;<	eſt.
!!LO:LB:g=original
=67||	=67||	=67||	=67||	=67||	=67||	=67-	=67-	=67-	=67-
*clefC3	*	*	*	*	*	*	*	*	*
*M2/1	*	*M2/1	*	*M2/1	*	*M2/1	*	*M2/1	*
*met(C|)	*	*met(C|)	*	*met(C|)	*	*met(C|)	*	*met(C|)	*
!LO:TX:t=P:problem:w źródle inicjał C na początku pięciolinii	!	!LO:TX:t=P:problem:w źródle inicjał C na początku pięciolinii	!	!	!	!	!	!	!
!	!	!	!	!LO:TX:t=P:problem:w źródle inicjał C na początku pięciolinii	!	!LO:TX:t=P:problem:w źródle inicjał C na początku pięciolinii	!	!	!
!LO:TX:b:Bi:t=Cruciffixus	!	!	!	!	!	!	!	!	!
!LO:TX:a:Bi:t=a3:rj	!	!	!	!LO:TX:a:Bi:t=a3:rj	!	!LO:TX:a:Bi:t=a2:rj	!	!	!
!	!	!	!	!	!	!	!	!LO:TX:a:Bi:t=Cruciffixuſ \nTacet	!
1e	.	0r	.	1r	.	1.e	Cru-	0ryy	.
!LO:TX:t=P:problem:kreska pseudotaktowa	!	!	!	!	!	!	!	!	!
1A	.	.	.	1.A	Cru-	.	.	.	.
.	.	.	.	.	.	2e\	-cif-	.	.
=68	=68	=68-	=68-	=68-	=68-	=68-	=68-	=68-	=68-
1A	6	1r	.	.	.	1f	-fi-	0ryy	.
.	.	.	.	2A\	-cif-	.	.	.	.
1E	6	1.E	Cru-	1c	-fi-	2e\	-xus	.	.
.	.	.	.	.	.	2.g\	e-	.	.
=69-	=69-	=69-	=69-	=69-	=69-	=69-	=69-	=69-	=69-
*clefF4	*	*	*	*	*	*	*	*	*
1E	.	.	.	2B\	-xus	.	.	0ryy	.
.	.	.	.	.	.	4f\	.	.	.
.	.	2E\	-cif-	2.e\	e-	4e\	-ti-	.	.
.	.	.	.	.	.	4d\	-am	.	.
!LO:TX:t=P:problem:kreska pseudotaktowa	!	!	!	!	!	!	!	!	!
1F	5	1F	-fi-	.	.	2c\	pro	.	.
.	6	.	.	4d\	-ti-	.	.	.	.
.	.	.	.	4c\	-am	2d\	no-	.	.
.	.	.	.	4B\	pro	.	.	.	.
=70	=70	=70-	=70-	=70-	=70-	=70-	=70-	=70-	=70-
1E	6	1E	-xus	2c\	no-	1.e	-bis	0ryy	.
.	5	.	.	4B\	.	.	.	.	.
.	.	.	.	4G\	.	.	.	.	.
2.A\	.	2.A\	et-	2.c\	.	.	.	.	.
.	.	.	.	.	.	2e\	Sub	.	.
!LO:TX:t=P:problem:kreska pseudotaktowa	!	!	!	!	!	!	!	!	!
4G\	.	4G\	-i-	4B\	.	.	.	.	.
=71	=71	=71-	=71-	=71-	=71-	=71-	=71-	=71-	=71-
4F\	.	4F\	-a(m)	1c	-bis	4a\	pon-	0ryy	.
4E\	.	4E\	pro	.	.	4g\	-ti-	.	.
1F	.	1F	no-	.	.	1f	-o	.	.
.	.	.	.	2c\	Sub	.	.	.	.
!LO:TX:t=P:problem:kreska pseudotaktowa	!	!	!	!	!	!	!	!	!
2D\	.	2D\	.	4d\	pon-	2f\	pi-	.	.
.	.	.	.	4c\	-ti-	.	.	.	.
=72	=72	=72-	=72-	=72-	=72-	=72-	=72-	=72-	=72-
2.E\	.	2.E\	.	2B\	-o	1e	-la-	0ryy	.
.	.	.	.	1c	pi-	.	.	.	.
4F\	.	4F\	.	.	.	.	.	.	.
!	!	!LO:TX:t=P:problem:kreska oddechu na różnych liniach [rozdzielacz słów / znak oddechu]:global	!	!	!	!	!	!	!
2G\	.	2G,<\	-bis	.	.	2d,<\	-to	.	.
*	*	*	*	*	*	*	*ij	*	*
!LO:TX:t=P:problem:kreska pseudotaktowa	!	!	!	!	!	!	!	!	!
2D\	.	2D\	Sub	2.B\	-la-	2f\	Sub	.	.
=73	=73	=73-	=73-	=73-	=73-	=73-	=73-	=73-	=73-
2F\	.	2F\	pon-	.	.	2d\	pon-	0ryy	.
.	.	.	.	4A\	.	.	.	.	.
2C\	.	2C\	-ti-	2.A\	.	2e\	-ti-	.	.
!	!	!	!	!	!	!LO:SIC:v:t=custos d	!	!	!
2E\	.	2E\	-o	.	.	2c\	-o	.	.
.	.	.	.	8G\L	.	.	.	.	.
!	!	!	!	!LO:SIC:v:t=custos G	!	!	!	!	!
.	.	.	.	8F\J	.	.	.	.	.
!	!	!	!	!LO:LB:g=original	!	!LO:LB:g=original	!	!	!
!LO:SIC:v:t=custos C	!	!LO:SIC:v:t=custos C	!	!	!	!	!	!	!
2BB/	.	2BB/	pi-	1G/	.	2d\	pi-	.	.
!LO:LB:g=original	!	!LO:LB:g=original	!	!	!	!	!	!	!
=74-	=74-	=74-	=74-	=74-	=74-	=74-	=74-	=74-	=74-
2C#X/	.	2C#X/	-la-	.	.	2e\	-la-	0ryy	.
2D/	.	2D/	-to	2F/	-to	2.a\	-to	.	.
!LO:TX:t=P:problem:kreska pseudotaktowa	!	!	!	!	!	!	!	!	!
1GG	-	1GG	pi-	1B-X	pas-	.	.	.	.
*	*	*	*	*	*	*	*Xij	*	*
.	.	.	.	.	.	8g\L	.	.	.
.	.	.	.	.	.	8f\J	.	.	.
.	.	.	.	.	.	1g\	.	.	.
=75	=75	=75-	=75-	=75-	=75-	=75-	=75-	=75-	=75-
!LO:TX:b:t=P:problem:w źródle # cyfrowania pod nutą	!	!	!	!	!	!	!	!	!
1D	7\ #	1D	-la-	2A\	-sus	.	.	0ryy	.
*	*	*	*	*	*ij	*	*	*	*
!	!	!	!	!	!	!LO:TX:b:t=P:problem:# below	!	!	!
.	.	.	.	1d	pas-	2f#\	.	.	.
!LO:TX:t=P:problem:kreska pseudotaktowa	!	!	!	!	!	!	!	!	!
1GG	.	1GG	-to	.	.	2r	.	.	.
.	.	.	.	2B-\	-sus	1g\	pas-	.	.
*	*	*	*	*	*Xij	*	*	*	*
=76	=76	=76-	=76-	=76-	=76-	=76-	=76-	=76-	=76-
*	*	*	*	*	*ij	*	*	*	*
1.C	.	2r	.	1.c	pas-	.	.	0ryy	.
.	.	1Cny	pas-	.	.	2e\	-sus	.	.
.	.	.	.	.	.	2.a\	et	.	.
!LO:TX:t=P:problem:kreska pseudotaktowa	!	!	!	!	!	!	!	!	!
2AA/	.	2AA/	-sus	2c\	-sus	.	.	.	.
.	.	.	.	.	.	4g\	.	.	.
*	*	*	*	*	*Xij	*	*	*	*
=77	=77	=77-	=77-	=77-	=77-	=77-	=77-	=77-	=77-
*	*	*	*ij	*	*	*	*	*	*
2D/	.	2D/	pas-	2d\	et	4fny\	.	0ryy	.
.	.	.	.	.	.	4d\	.	.	.
2GG/	.	2GG/	-sus	4c\	.	1g	Se-	.	.
.	.	.	.	4Bny\	.	.	.	.	.
*	*	*	*Xij	*	*	*	*	*	*
!LO:TX:b:t=P:problem:w źródle # cyfrowania pod nutą	!	!	!	!	!	!	!	!	!
2AA/	7 #	2AA/	Et	2c#X\	Se-	.	.	.	.
!LO:TX:t=P:problem:kreska pseudotaktowa	!	!	!	!	!	!	!	!	!
2D\	- x	2BB-X/	Se-	1d\	.	1f\	.	.	.
=78	=78	=78-	=78-	=78-	=78-	=78-	=78-	=78-	=78-
!LO:TX:b:t=P:problem:w źródle # cyfrowania pod nutą	!	!	!	!	!	!	!	!	!
0AA	4	1.AA	-pul-	.	.	.	.	0ryy	.
!	!	!	!	!LO:TX:b:t=P:problem:# below	!	!	!	!	!
.	3	.	.	4c#X\	.	4e\	.	.	.
.	.	.	.	4B\	.	4d\	.	.	.
!	!	!	!	!LO:TX:b:t=P:problem:# below	!	!	!	!	!
.	.	.	.	2.c#X\	-pul-	2.e\	-pul-	.	.
.	.	2AA/	-tu(s)	.	.	.	.	.	.
.	.	.	.	4c#\	-t(us)	4e\	-t(us)	.	.
=79-	=79-	=79-	=79-	=79-	=79-	=79-	=79-	=79-	=79-
!LO:TX:b:t=P:problem:w źródle # cyfrowania pod nutą	!	!	!	!	!	!	!	!	!
0D;>	#	0D;>	eſt.	0d;<	eſt.	0f;<	eſt.	0ryy	.
!LO:LB:g=original	!	!LO:PB:g=original	!	!LO:LB:g=original	!	!LO:LB:g=original	!	!	!
=80||	=80||	=80||	=80||	=80||	=80||	=80||	=80||	=80||	=80||
*M2/1	*	*M2/1	*	*M2/1	*	*M2/1	*	*M2/1	*
*met(C|)	*	*met(C|)	*	*met(C|)	*	*met(C|)	*	*met(C|)	*
!LO:TX:t=P:problem:w źródle inicjał E na początku pięciolinii	!	!LO:TX:t=P:problem:w źródle inicjał E na początku pięciolinii	!	!	!	!	!	!	!
!	!	!	!	!LO:TX:t=P:problem:w źródle inicjał E na początku pięciolinii	!	!LO:TX:t=P:problem:w źródle inicjał E na początku pięciolinii	!	!	!
!	!	!	!	!	!	!	!	!LO:TX:t=P:problem:w źródle inicjał E na początku części	!
!LO:TX:b:Bi:t=Et Reſurrexit	!	!	!	!	!	!	!	!	!
1A	.	1A	Et	00r	.	1A	Et	00r	.
2F\	.	2F\	Re-	.	.	2c\	re-	.	.
!LO:TX:t=P:problem:kreska pseudotaktowa	!	!	!	!	!	!	!	!	!
2D\	.	2D\	-Sur-	.	.	2d\	-ſur-	.	.
=81	=81	=81-	=81-	=81-	=81-	=81-	=81-	=81-	=81-
2G\	.	2G\	-re-	.	.	2d\	-re-	.	.
!LO:TX:b:t=P:problem:w źródle # cyfrowania pod nutą	!	!	!	!	!	!	!	!	!
2A\	#	2A\	-xit	.	.	2c\	-xit	.	.
2.D\	.	2.D\	ter-	.	.	2.f\	ter-	.	.
!LO:TX:t=P:problem:kreska pseudotaktowa	!	!	!	!	!	!	!	!	!
4E\	.	4E\	.	.	.	4e\	.	.	.
=82	=82	=82-	=82-	=82-	=82-	=82-	=82-	=82-	=82-
4F\	.	4F\	.	00r	.	4d\	.	2r	.
4G\	.	4G\	.	.	.	4B\	.	.	.
2A\	.	2A\	.	.	.	4c\	.	2e/	Et
.	.	.	.	.	.	4d\	.	.	.
2G\	6	2G\	-ti-	.	.	2.e\	.	2g/	re-
!LO:TX:t=P:problem:kreska pseudotaktowa	!	!	!	!	!	!	!	!	!
2F\	#6	2F\	-a	.	.	.	.	2a/	-ſur-
.	.	.	.	.	.	4d\	.	.	.
=83	=83	=83-	=83-	=83-	=83-	=83-	=83-	=83-	=83-
2.E\	.	2.E\	.	.	.	2c\	.	2a/	-re-
.	.	.	.	.	.	2B/	ti-	2g/	-xit
4D\	.	4D\	.	.	.	.	.	.	.
2C/	.	2C/	.	.	.	4A/	-a	2.cc\	ter-
.	.	.	.	.	.	4B/	.	.	.
4AA/	.	4AA/	.	.	.	4c/	.	.	.
!LO:TX:t=P:problem:kreska pseudotaktowa	!	!	!	!	!	!	!	!	!
4BB/	.	4BB/	.	.	.	4d/	.	4b\	-ti-
=84	=84	=84-	=84-	=84-	=84-	=84-	=84-	=84-	=84-
4C/	.	4C\	.	1r	.	2.e\	.	2a\	-a
4D/	.	4D\	.	.	.	.	.	.	.
2E\	.	2E\	.	.	.	.	.	2g#X\	di-
.	.	.	.	.	.	4d\	.	.	.
!LO:TX:t=P:problem:kreska pseudotaktowa	!	!	!	!	!	!	!	!	!
!	!	!	!	!	!	!LO:SIC:v:t=custos d	!	!	!
1F	.	1F	di-	2r	.	2c\	.	1.a	-e
!	!	!	!	!	!	!LO:LB:g=original	!	!	!
.	.	.	.	2d\	Se-	2d\	di-	.	.
=85	=85	=85-	=85-	=85-	=85-	=85-	=85-	=85-	=85-
1C	.	1C	-e	2c\	-cu(n)-	1e	-e	.	.
.	.	.	.	2B\	-du(m)	.	.	2gny/	ſe-
!LO:SIC:v:t=custos C	!	!	!	!	!	!	!	!	!
!	!	!LO:SIC:v:t=custos AA	!	!	!	!	!	!	!
1FF	.	0r	.	2.A\	Scri-	2r	.	2f/	-cun-
!	!	!	!	!	!	!	!	!LO:SIC:v:t=custos e	!
.	.	.	.	.	.	2a\	ſe-	2e/	-du(m)
.	.	.	.	4B\	.	.	.	.	.
!LO:LB:g=original	!	!	!	!	!	!	!	!LO:LB:g=original	!
=86-	=86-	=86-	=86-	=86-	=86-	=86-	=86-	=86-	=86-
2C/	.	.	.	2c\	.	1g	-cu(n)-	2e/	Scrip-
2BB-X/	.	.	.	2B-X\	-ptu-	.	.	2d/	-tu-
!	!	!LO:LB:g=original	!	!	!	!	!	!	!
!LO:TX:t=P:problem:kreska pseudotaktowa	!	!	!	!	!	!	!	!	!
1AA	6	1AA	Et	1A	-raſ	2f\	-du(m)	1a	-raſ
.	5	.	.	.	.	2.e\	Scrip-	.	.
=87	=87	=87-	=87-	=87-	=87-	=87-	=87-	=87-	=87-
1BB	5	1BB	as-	2r	.	.	.	1r	.
.	6	.	.	.	.	4d\	.	.	.
.	.	.	.	1G	Et	2d\	-tu-	.	.
*	*	*	*	*	*	*lig	*	*	*
!LO:TX:t=P:problem:kreska pseudotaktowa	!	!	!	!	!	!	!	!	!
1C	5	1C	-cen-	.	.	1e	-ras	2r	.
.	6	.	.	1A\	as-	.	.	2e/	Et
=88	=88	=88-	=88-	=88-	=88-	=88-	=88-	=88-	=88-
1D	5	1D	-dit	.	.	1d	.	1f	aſ-
.	6	.	.	1Bny	-cen-	.	.	.	.
*	*	*	*	*	*	*Xlig	*	*	*
!LO:TX:t=P:problem:kreska pseudotaktowa	!	!	!	!	!	!	!	!	!
1E	5	1E	in	.	.	0r	.	1g	-cen-
.	6	.	.	1c\	-dit	.	.	.	.
=89	=89	=89-	=89-	=89-	=89-	=89-	=89-	=89-	=89-
1F	5	1F	Cae-	.	.	.	.	2a\	-dit
.	6	.	.	2d\	in	.	.	1b	in
!LO:TX:t=P:problem:kreska pseudotaktowa	!	!	!	!	!	!	!	!	!
1E	.	1E	-lu(m)	1e	Cae-	1G	Et	.	.
.	.	.	.	.	.	.	.	2cc\	Cae-
=90	=90	=90-	=90-	=90-	=90-	=90-	=90-	=90-	=90-
*	*	*	*	*	*	*	*	*lig	*
!	!	!	!	!LO:SIC:v:t=custos c	!	!	!	!	!
1G	.	2r	.	1d	-lu(m)	1B	As-	1dd	.
.	.	2G\	Se-	.	.	.	.	.	.
!	!	!	!	!LO:LB:g=original	!	!	!	!	!
2E\	6	2E\	-det	2r	.	1c	-cen-	1ee	.
!LO:TX:t=P:problem:kreska pseudotaktowa	!	!	!	!	!	!	!	!	!
2C\	.	2C\	ad	2c\	Se-	.	.	.	.
*	*	*	*	*	*	*	*	*Xlig	*
=91	=91	=91-	=91-	=91-	=91-	=91-	=91-	=91-	=91-
2.G\	.	2.G\	(d)ex-	2B\	-det	1d	-dit	1dd	-lu(m)
.	.	.	.	2G\	ad	.	.	.	.
4F\	.	4F\	-te-	.	.	.	.	.	.
2E\	.	2E\	-ra(m)	2.c\	dex-	1e	in	0r	.
!LO:TX:t=P:problem:kreska pseudotaktowa	!	!	!	!	!	!	!	!	!
2A\	.	4A\	pa-	.	.	.	.	.	.
.	.	4G\	.	4B\	-te-	.	.	.	.
=92	=92	=92-	=92-	=92-	=92-	=92-	=92-	=92-	=92-
1F	.	4F\	.	2A\	-ra(m)	1f	Cae-	.	.
.	.	4E\	.	.	.	.	.	.	.
.	.	2F\	.	1c	pa-	.	.	.	.
!LO:TX:t=P:problem:kreska pseudotaktowa	!	!	!	!	!	!	!	!	!
[<1G	7	0G	.	.	.	1e	-lu(m)	2r	.
.	6	.	.	4B\	.	.	.	2g\	Et
.	.	.	.	4A\	.	.	.	.	.
=93	=93	=93-	=93-	=93-	=93-	=93-	=93-	=93-	=93-
1G]	5	.	.	1B	.	2r	.	2.dd\	I-
.	.	.	.	.	.	2d\	Et	.	.
.	.	.	.	.	.	.	.	4dd\	-te-
!LO:TX:t=P:problem:kreska pseudotaktowa	!	!	!	!	!	!	!	!	!
1C	6 4	0C	-tris	2c\	-triſ	2.f\	I-	2a\	-ru(m)
.	.	.	.	2A\	et	.	.	2cc\	ven-
.	.	.	.	.	.	4f\	-te-	.	.
=94	=94	=94-	=94-	=94-	=94-	=94-	=94-	=94-	=94-
!LO:SIC:v:t=custos F	!	!	!	!	!	!LO:SIC:v:t=custos g	!	!	!
1C	5 7	.	.	2.c\	I-	2e\	-rum	2.g/	-tu-
!	!	!	!	!	!	!LO:PB:g=original	!	!	!
!	!	!	!	!	!	!LO:TX:t=P:problem:w źródle powtórzone "rum"	!	!	!
.	.	.	.	.	.	2g\	ru(m)	.	.
.	.	.	.	4c\	-te-	.	.	4e/	-rus
!LO:LB:g=original	!	!	!	!	!	!	!	!	!
2F\	.	00r	.	2F/	-ru(m)	2f\	Ven-	2a\	eſt
!LO:TX:t=P:problem:kreska pseudotaktowa	!	!	!	!	!	!	!	!	!
2A\	.	.	.	2A/	Ven-	1e\	-tu-	2cc\	Cu(m)
=95	=95	=95-	=95-	=95-	=95-	=95-	=95-	=95-	=95-
2G\	.	.	.	2G/	-tu-	.	.	2b\	g(lo-
!	!	!	!	!	!	!	!	!LO:SIC:v:t=custos cc	!
2F\	.	.	.	2F/	-rus	2f\	-rus	2dd\	-ri)-
!	!	!	!	!	!	!	!	!LO:LB:g=original	!
2E\	.	.	.	2E/	eſt	2g\	eſt	2cc\	-a
!LO:TX:t=P:problem:kreska pseudotaktowa	!	!	!	!	!	!	!	!	!
2G\	.	.	.	2G/	Cu(m)	2d\	Cu(m)	1b\	.
=96	=96	=96-	=96-	=96-	=96-	=96-	=96-	=96-	=96-
1D	-n	.	.	2.D/	glo-	2.f\	glo-	.	.
.	.	.	.	.	.	.	.	4a\	.
.	.	.	.	4D/	-ri-	4f\	-ri-	4b\	.
2E\	.	2r	.	1E	-a	2e\	-a	1cc	.
!LO:TX:t=P:problem:kreska pseudotaktowa	!	!	!	!	!	!	!	!	!
[>2C\	.	1C/	Ju-	.	.	1e\	Ju-	.	.
=97	=97	=97-	=97-	=97-	=97-	=97-	=97-	=97-	=97-
2C\]	.	.	.	0r	.	.	.	2r	.
2BB\	.	2BB/	-di-	.	.	2d\	-di-	1g	Ju-
2C\	.	2C/	-ca-	.	.	1c	-ca-	.	.
!LO:TX:t=P:problem:kreska pseudotaktowa	!	!	!	!	!	!	!	!	!
!	!	!LO:SIC:v:t=custos F	!	!	!	!	!	!	!
2AA/	.	2AA/	-re	.	.	.	.	2f/	-di-
!	!	!LO:LB:g=original	!	!	!	!	!	!	!
=98	=98	=98-	=98-	=98-	=98-	=98-	=98-	=98-	=98-
!	!	!	!	!LO:SIC:v:t=custos c	!	!	!	!	!
1F	.	1F	vi-	1r	.	2A\	-re	1a	-ca-
.	.	.	.	.	.	1f	Vi-	.	.
!	!	!	!	!LO:LB:g=original	!	!	!	!	!
2F\	.	2F\	-vos	2r	.	.	.	2a\	-re
*	*	*	*	*	*	*lig	*	*	*
!LO:TX:t=P:problem:kreska pseudotaktowa	!	!	!	!	!	!	!	!	!
2C/	.	2C/	et	1c\	Ju-	1e\	-vos	2cc\	Vi-
=99	=99	=99-	=99-	=99-	=99-	=99-	=99-	=99-	=99-
1D	.	2.D/	mor-	.	.	.	.	2a\	-voſ
.	.	.	.	2B\	-di-	1d	.	2.b\	et
.	.	4D/	-tu-	.	.	.	.	.	.
!LO:TX:t=P:problem:kreska pseudotaktowa	!	!	!	!	!	!	!	!	!
1AA	.	0AA	-os	1e	-ca-	.	.	.	.
.	.	.	.	.	.	.	.	8a\L	.
.	.	.	.	.	.	.	.	8g\J	.
*	*	*	*	*	*	*Xlig	*	*	*
.	.	.	.	.	.	2c/	et	2.a\	mor-
=100	=100	=100-	=100-	=100-	=100-	=100-	=100-	=100-	=100-
1AA	.	.	.	1c	-re	2.c/	mor-	.	.
.	.	.	.	.	.	.	.	4b\	.
.	.	.	.	.	.	.	.	1cc	.
.	.	.	.	.	.	4A/	-tu-	.	.
!LO:TX:t=P:problem:kreska pseudotaktowa	!	!	!	!	!	!	!	!	!
1E	.	2r	.	1G	Vi-	0e	-os	.	.
.	.	2E\	Cu-	.	.	.	.	2b\	-tu-
=101	=101	=101-	=101-	=101-	=101-	=101-	=101-	=101-	=101-
!	!	!	!	!	!	!	!	!LO:TX:t=P:problem:kreska oddechu na różnych liniach [rozdzielacz słów / znak oddechu]:global	!
1C#X	.	1C#X	-ius	1A	-vos	.	.	2a,<\	-os
.	.	.	.	.	.	.	.	1ee	Cu-
!LO:SIC:v:t=custos D	!	!	!	!	!	!	!	!	!
1AA	#	1AA	reg-	1A	et	2r	.	.	.
.	.	.	.	.	.	1a\	Cu-	2cc\	-ius
!LO:LB:g=original	!	!	!	!	!	!	!	!	!
=102-	=102-	=102-	=102-	=102-	=102-	=102-	=102-	=102-	=102-
1D	.	1D	-ni	2.A/	mor-	.	.	2a\	Reg-
!	!	!	!	!	!	!LO:TX:b:t=P:problem:# below	!	!	!
.	.	.	.	.	.	1f#	-ius	1dd	-ni
.	.	.	.	4A/	-tu-	.	.	.	.
!LO:TX:t=P:problem:kreska pseudotaktowa	!	!	!	!	!	!	!	!	!
1BB	.	1BB	non	1D	-os	.	.	.	.
.	.	.	.	.	.	2d\	Reg-	1b\	no(n)
=103	=103	=103-	=103-	=103-	=103-	=103-	=103-	=103-	=103-
!	!	!	!	!	!	!LO:SIC:v:t=custos e	!	!	!
1GG	.	1GG	e-	1r	.	1g	-ni	.	.
.	.	.	.	.	.	.	.	1ee	e-
!	!	!	!	!	!	!LO:LB:g=original	!	!	!
!LO:TX:t=P:problem:kreska pseudotaktowa	!	!	!	!	!	!	!	!	!
1C	.	1Cny	-rit	2r	.	1e	no(n)	.	.
.	.	.	.	1c\	Cu-	.	.	2cc\	-rit
!	!	!	!	!	!	!	!	!LO:LB:g=original	!
=104	=104	=104-	=104-	=104-	=104-	=104-	=104-	=104-	=104-
1F	.	1F	non	.	.	1a	e-	1a	non
.	.	.	.	1A	-ius	.	.	.	.
!LO:TX:t=P:problem:kreska pseudotaktowa	!	!	!	!	!	!	!	!	!
1D	.	1D	e-	.	.	1fny	-rit	1dd	e-
!	!	!	!	!LO:TX:b:t=P:problem:# below	!	!	!	!	!
.	.	.	.	2F#X/	Reg-	.	.	.	.
=105	=105	=105-	=105-	=105-	=105-	=105-	=105-	=105-	=105-
*	*	*	*	*	*	*	*ij	*	*
1G	.	1G	-rit	1.B	-ni	1d	no(n)	2dd,<\	-rit
*	*	*	*	*	*	*	*	*	*ij
.	.	.	.	.	.	.	.	2b\	non
*	*	*	*ij	*	*	*	*	*	*
!LO:TX:t=P:problem:kreska pseudotaktowa:między nutą a kropką	!	!	!	!	!	!	!	!	!
1.E	.	1.E	non	.	.	1g	e-	2ee\	e-
.	.	.	.	2G/	no(n)	.	.	2b,<\	-rit
*	*	*	*	*	*	*	*	*	*Xij
=106	=106	=106-	=106-	=106-	=106-	=106-	=106-	=106-	=106-
.	.	.	.	1c	e-	2g\	-rit	2g\	non
*	*	*	*	*	*	*	*Xij	*	*
2C\	.	2C/	e-	.	.	2e\	non	1cc	e-
!LO:TX:t=P:problem:kreska pseudotaktowa	!	!	!	!	!	!	!	!	!
1F	.	1F	-rit	2A\	-rit	1a	e-	.	.
.	.	.	.	2c\	non	.	.	2a\	-rit
*	*	*	*Xij	*	*	*	*	*	*
=107	=107	=107-	=107-	=107-	=107-	=107-	=107-	=107-	=107-
!LO:TX:t=P:problem:kreska pseudotaktowa	!	!	!	!	!	!	!	!	!
!	!	!LO:TX:t=P:problem:w źródle zapisane jako lig i podpisane "błąd" [ligatura nieuwzględniona w kodzie]	!	!	!	!	!	!	!
0C	5	0C	fi-	2.e\	e-	1.g	-rit	1r	.
.	6	.	.	4d\	.	.	.	.	.
.	.	.	.	4c\	.	.	.	2g\	non
.	.	.	.	4B\	.	.	.	.	.
.	.	.	.	1c\	.	2e\	fi-	2a\	e-
=108	=108	=108-	=108-	=108-	=108-	=108-	=108-	=108-	=108-
!LO:TX:t=P:problem:kreska pseudotaktowa	!	!	!	!	!	!	!	!	!
!LO:TX:b:t=P:problem:w źródle # cyfrowania pod nutą	!	!	!	!	!	!	!	!	!
0D	7 #	0D	.	.	.	0d	.	2f#X/	-rit
!	!	!	!	!LO:SIC:v:t=custos A	!	!	!	!	!
.	.	.	.	2B\	-rit	.	.	1g	fi-
!	!	!	!	!LO:LB:g=original	!	!	!	!	!
.	.	.	.	1A	fi-	.	.	.	.
!	!	!	!	!	!	!	!	!LO:TX:b:t=P:problem:# below	!
.	.	.	.	.	.	.	.	2f#X/	.
!	!	!LO:LB:g=original	!	!	!	!	!	!	!
=109	=109	=109-	=109-	=109-	=109-	=109-	=109-	=109-	=109-
!LO:TX:t=P:problem:kreska pseudotaktowa	!	!	!	!	!	!	!	!	!
0GG;>	.	0GG;>	-nis	0B	-nis	0d	-nis	0g	-niſ
=110	=110	=110-	=110-	=110-	=110-	=110-	=110-	=110-	=110-
!LO:TX:b:Bi:t=Et In ſpiritu(m)	!	!	!	!	!	!	!	!	!
2r	.	2r	.	2r	.	2r	.	2r	.
1E	.	1E	Et	1e	Et	1g#X	Et	1b	Et
!LO:SIC:v:t=custos A	!	!	!	!	!	!	!	!	!
2E\	#	2E\	In	2e\	In	2g#\	In	2b\	In
!LO:PB:g=original	!	!	!	!	!	!	!	!	!
=111-	=111-	=111-	=111-	=111-	=111-	=111-	=111-	=111-	=111-
1A	.	2.A\	Spi-	2.e\	Spi-	2.a\	Spi-	2.cc\	Spi-
.	.	4A\	-ri-	4e\	-ri-	4a\	-ri-	4cc\	-ri-
2D\	.	2D\	-tu(m)	2d\	-tu(m)	2f\	-tu(m)	2dd\	-tu(m)
!LO:TX:t=P:problem:kreska pseudotaktowa	!	!	!	!	!	!	!	!	!
[<2F\	.	1F\	San-	2c\	San-	1a\	San-	2a\	San-
=112	=112	=112-	=112-	=112-	=112-	=112-	=112-	=112-	=112-
!	!	!	!	!	!	!	!	!LO:SIC:v:t=custos cc	!
2F\]	.	.	.	2d\	.	.	.	2b\	.
!	!	!	!	!	!	!	!	!LO:LB:g=original	!
2C/	.	2C/	-ctu(m)	2e\	-ctu(m)	2e\	-ctu(m)	2cc\	-ctu(m)
!LO:TX:t=P:problem:kreska pseudotaktowa	!	!	!	!	!	!	!	!	!
1E	#	2.E\	D(o-	2.e\	Do-	2.g#X\	Do-	2.b\	D(o-
.	.	4E\	-mi-	4e\	-mi-	4g#\	-mi-	4b\	-mi-
=113	=113	=113-	=113-	=113-	=113-	=113-	=113-	=113-	=113-
1E	.	1E	-num)	1B	-nu(m)	1g#	-nu(m)	2b\	-n)u(m)
.	.	.	.	.	.	.	.	2ee\	Et
!	!	!	!	!	!	!LO:LB:g=original	!	!	!
2A\	.	00r	.	2r	.	2a\	Et	2cc\	Vi-
!LO:TX:t=P:problem:kreska pseudotaktowa	!	!	!	!	!	!	!	!	!
2D\	.	.	.	2d\	Et	2f\	Vi-	1a\	-vi-
=114	=114	=114-	=114-	=114-	=114-	=114-	=114-	=114-	=114-
1A	.	.	.	1A	Vi-	2f\	-vi-	.	.
.	.	.	.	.	.	2c\	-fi-	2e/	-fi-
2G\	.	.	.	2G/	-vi-	2.B\	-can-	2.g/	-can-
!LO:TX:t=P:problem:kreska pseudotaktowa	!	!	!	!	!	!	!	!	!
2B\	6	.	.	2B\	-fi-	.	.	.	.
.	.	.	.	.	.	8c\L	.	4fny/	.
.	.	.	.	.	.	8d\J	.	.	.
=115	=115	=115-	=115-	=115-	=115-	=115-	=115-	=115-	=115-
1c	.	.	.	1c	-can-	1e	.	4e/	.
.	.	.	.	.	.	.	.	4f/	.
.	.	.	.	.	.	.	.	1g	.
!LO:TX:t=P:problem:kreska pseudotaktowa	!	!	!	!	!	!	!	!	!
1AA	.	1AA	qui	1A	-te(m)	1c	-tem	.	.
!	!	!	!	!	!	!	!	!LO:TX:b:t=P:problem:# below	!
.	.	.	.	.	.	.	.	2f#X/	.
=116	=116	=116-	=116-	=116-	=116-	=116-	=116-	=116-	=116-
2E\	.	2E\	ex	00r	.	1r	.	1g	-tem
1G	.	1G	pat-	.	.	.	.	.	.
.	.	.	.	.	.	1d	qui	1r	.
!LO:TX:t=P:problem:kreska pseudotaktowa	!	!	!	!	!	!	!	!	!
2F\	.	2F\	-re	.	.	.	.	.	.
=117	=117	=117-	=117-	=117-	=117-	=117-	=117-	=117-	=117-
1E	.	2.E\	fi-	.	.	2e\	ex	1g	qui
.	.	.	.	.	.	1gny	pat-	.	.
.	.	4E\	-li-	.	.	.	.	.	.
!LO:TX:t=P:problem:kreska pseudotaktowa	!	!	!	!	!	!	!	!	!
1D	6	1D	-o-	.	.	.	.	2b\	ex
.	7	.	.	.	.	2f\	-re	1dd\	pa-
=118	=118	=118-	=118-	=118-	=118-	=118-	=118-	=118-	=118-
1AA	.	1AA	-q(ue)	1A	qui	2.e\	fi-	.	.
.	.	.	.	.	.	.	.	2cc\	-tre
.	.	.	.	.	.	4e\	-li-	.	.
2BB/	.	1r	.	2B\	ex	1d	-o-	2.b\	fi-
!LO:TX:t=P:problem:kreska pseudotaktowa	!	!	!	!	!	!	!	!	!
2D/	.	.	.	1d\	pat-	.	.	.	.
.	.	.	.	.	.	.	.	4b\	-li-
=119	=119	=119-	=119-	=119-	=119-	=119-	=119-	=119-	=119-
1A	.	2r	.	.	.	1A	-q(ue)	1a	-o-
!	!	!LO:SIC:v:t=custos G	!	!LO:SIC:v:t=custos B	!	!	!	!	!
.	.	2A\	pro-	2c\	-re	.	.	.	.
!LO:LB:g=original	!	!LO:LB:g=original	!	!LO:LB:g=original	!	!	!	!	!
!	!	!	!	!	!	!	!	!LO:SIC:v:t=custos cc	!
4G\	.	4G\	-ce-	2.B\	fi-	2r	.	1d	-q(ue)
4F\	.	4F\	.	.	.	.	.	.	.
4E\	.	4E\	.	.	.	2a\	pro-	.	.
!LO:TX:t=P:problem:kreska pseudotaktowa	!	!	!	!	!	!	!	!	!
4D\	.	4D\	.	4B\	-li-	.	.	.	.
!	!	!	!	!	!	!	!	!LO:LB:g=original	!
=120	=120	=120-	=120-	=120-	=120-	=120-	=120-	=120-	=120-
2C/	.	2C/	.	1c	-o-	4g\	-ce-	2r	.
.	.	.	.	.	.	4f\	.	.	.
2AA/	.	2AA/	-dit	.	.	4e\	.	2cc\	pro-
.	.	.	.	.	.	4d\	.	.	.
2E\	.	1r	.	1G	-q(ue)	2c/	.	4b\	-ce-
.	.	.	.	.	.	.	.	4a\	.
!LO:TX:t=P:problem:kreska pseudotaktowa	!	!	!	!	!	!	!	!	!
2G\	.	.	.	.	.	2A/	-dit	4g/	.
.	.	.	.	.	.	.	.	4fny/	.
=121	=121	=121-	=121-	=121-	=121-	=121-	=121-	=121-	=121-
!	!	!	!	!	!	!LO:SIC:v:t=custos g	!	!	!
2c\	.	2r	.	2r	.	1r	.	2e/	.
2A\	.	2A\	pro-	2c\	pro-	.	.	2c/	-dit
!	!	!	!	!	!	!LO:LB:g=original	!	!	!
4G\	.	4G\	-ce-	4B\	-ce-	2r	.	1r	.
4F\	.	4F\	.	4A\	.	.	.	.	.
4E\	.	4E\	.	4G\	.	2g\	pro-	.	.
!LO:TX:t=P:problem:kreska pseudotaktowa	!	!	!	!	!	!	!	!	!
4D\	.	4D\	.	4Fny\	.	.	.	.	.
=122	=122	=122-	=122-	=122-	=122-	=122-	=122-	=122-	=122-
1C	5	1C	-dit	2E/	-dit	4f\	-ce-	2r	.
.	6	.	.	.	.	4e\	.	.	.
*	*	*	*	*	*ij	*	*	*	*ij
.	.	.	.	1A	pro-	4d\	.	2ee\	pro-
.	.	.	.	.	.	4c\	.	.	.
*	*	*	*ij	*	*	*	*	*	*
!LO:TX:t=P:problem:kreska pseudotaktowa	!	!	!	!	!	!	!	!	!
1D	5	1D	pro-	.	.	2B/	-dit	4dd\	-ce-
.	6	.	.	.	.	.	.	4cc\	.
*	*	*	*	*	*	*	*ij	*	*
.	.	.	.	2B\	-ce-	2g\	pro-	4b\	.
.	.	.	.	.	.	.	.	4a\	.
=123	=123	=123-	=123-	=123-	=123-	=123-	=123-	=123-	=123-
1E	.	1E	-ce-	2E/	-dit	2.f\	-ce-	2g/	.
*	*	*	*	*	*Xij	*	*	*	*
.	.	.	.	2e\	pro-	.	.	2e/	-dit
.	.	.	.	.	.	4e\	.	.	.
*	*	*	*	*	*	*	*	*	*Xij
*	*	*lig	*	*	*	*	*	*	*
!LO:TX:t=P:problem:kreska pseudotaktowa	!	!	!	!	!	!	!	!	!
1F	.	1F	.	4d\	-ce-	1d	-dit	1r	.
.	.	.	.	4c\	.	.	.	.	.
.	.	.	.	1c\	.	.	.	.	.
*	*	*	*	*	*	*	*Xij	*	*
=124	=124	=124-	=124-	=124-	=124-	=124-	=124-	=124-	=124-
1G	.	1G	.	.	.	1r	.	2r	.
.	.	.	.	2B\	-dit	.	.	2b\	qui
*	*	*Xlig	*	*	*	*	*	*	*
!LO:TX:t=P:problem:kreska pseudotaktowa	!	!	!	!	!	!	!	!	!
1c	.	1C	-dit	2r	.	2r	.	2g\	Cu(m)
.	.	.	.	2c\	qui	2e\	qui	1cc\	pa-
*	*	*	*Xij	*	*	*	*	*	*
=125	=125	=125-	=125-	=125-	=125-	=125-	=125-	=125-	=125-
2A\	.	0r	.	2A\	Cu(m)	2c\	Cu(m)	.	.
2d\	.	.	.	2d\	pa-	2f\	pa-	2a\	-tre
2B\	.	.	.	2B\	-tre	2d\	-tre	2g\	et
!LO:TX:t=P:problem:kreska pseudotaktowa	!	!	!	!	!	!	!	!	!
2c\	.	.	.	2c\	et	2e\	et	2a\	fi-
=126	=126	=126-	=126-	=126-	=126-	=126-	=126-	=126-	=126-
!	!	!	!	!	!	!	!	!LO:TX:b:t=P:problem:# below	!
2A\	.	1r	.	2A\	fi-	2c\	fi-	2f#/	-li-
2G\	.	.	.	2G\	-li-	2B\	-li-	1g	-o
!LO:TX:t=P:problem:kreska pseudotaktowa	!	!	!	!	!	!	!	!	!
!LO:TX:b:t=P:problem:w źródle # cyfrowania pod nutą	!	!	!	!	!	!	!	!	!
!	!	!	!	!LO:SIC:v:t=custos G	!	!	!	!	!
1D	7 #	2.D\	Si-	1A	-o	1d	-o	.	.
!	!	!	!	!	!	!	!	!LO:TX:b:t=P:problem:# below	!
.	.	.	.	.	.	.	.	2f#X/	.
.	.	4D\	-mul	.	.	.	.	.	.
!LO:LB:g=original	!	!	!	!LO:PB:g=original	!	!	!	!	!
=127	=127	=127-	=127-	=127-	=127-	=127-	=127-	=127-	=127-
2E\	.	2E\	a-	1r	.	0r	.	0g	.
2BB/	6	2BB/	-do-	.	.	.	.	.	.
!LO:TX:t=P:problem:kreska pseudotaktowa	!	!	!	!	!	!	!	!	!
1C	.	1C	-ra-	2.G/	Si-	.	.	.	.
.	.	.	.	4G/	-mul	.	.	.	.
=128	=128	=128-	=128-	=128-	=128-	=128-	=128-	=128-	=128-
*	*	*lig	*	*	*	*	*	*	*
!	!	!	!	!	!	!	!	!LO:SIC:v:t=custos a	!
1AA	.	1AA	-tur	2A/	a-	1r	.	0r	.
.	.	.	.	2E/	-do-	.	.	.	.
!LO:TX:t=P:problem:kreska pseudotaktowa	!	!	!	!	!	!	!	!	!
!	!	!LO:SIC:v:t=custos E	!	!	!	!	!	!	!
1GG	.	1GG	.	1G	-ra-	2.d\	Si-	.	.
.	.	.	.	.	.	4d\	-mul	.	.
*	*	*Xlig	*	*	*	*	*	*	*
!	!	!LO:LB:g=original	!	!	!	!	!	!LO:LB:g=original	!
=129	=129	=129-	=129-	=129-	=129-	=129-	=129-	=129-	=129-
*	*	*	*	*lig	*	*	*	*	*
1D	.	1r	.	1D	-tur	2f\	a-	2.a\	Si-
.	.	.	.	.	.	2d\	-do-	.	.
.	.	.	.	.	.	.	.	4a\	-mul
!LO:TX:t=P:problem:kreska pseudotaktowa	!	!	!	!	!	!	!	!	!
1C	.	2r	.	1C	.	1e	-ra-	2cc\	a-
.	.	2E\	Et	.	.	.	.	2g\	-do-
*	*	*	*	*Xlig	*	*	*	*	*
=130	=130	=130-	=130-	=130-	=130-	=130-	=130-	=130-	=130-
2F\	.	2F\	Cu(m)	2r	.	1d	-tur	1a	-ra-
2D\	.	2D\	glo-	2B\	et	.	.	.	.
!	!	!	!	!	!	!LO:SIC:v:t=custos d	!	!	!
2E\	.	2E\	-ri-	2c\	Cu(m)	1r	.	1g	-tur
!LO:TX:t=P:problem:kreska pseudotaktowa	!	!	!	!	!	!	!	!	!
2C\	.	2C\	-fi-	2A\	glo-	.	.	.	.
!	!	!	!	!	!	!LO:LB:g=original	!	!	!
=131	=131	=131-	=131-	=131-	=131-	=131-	=131-	=131-	=131-
2E\	.	4E\	-ca-	2c\	-ri-	2r	.	1r	.
!	!	!LO:TX:b:t=P:problem:# below	!	!	!	!	!	!	!
.	.	4F#X\	.	.	.	.	.	.	.
1G	.	1G	.	2G/	-fi-	1d	qui	.	.
.	.	.	.	1A	-ca-	.	.	2r	.
!LO:TX:t=P:problem:kreska pseudotaktowa	!	!	!	!	!	!	!	!	!
!	!	!LO:TX:b:t=P:problem:# below	!	!	!	!	!	!	!
2F#X\	2	2F#X\	.	.	.	2c/	lo-	2a\	Et
=132	=132	=132-	=132-	=132-	=132-	=132-	=132-	=132-	=132-
1E	.	1G	-tur	1E	-tur	2.B/	-cu-	2b\	Cu(m)
.	.	.	.	.	.	.	.	2g\	glo-
.	.	.	.	.	.	4B/	-t(us)	.	.
2A\	.	1r	.	2r	.	2A/	eſt	2cc\	-ri-
*	*	*	*	*	*	*	*ij	*	*
!LO:TX:t=P:problem:kreska pseudotaktowa	!	!	!	!	!	!	!	!	!
2c\	6	.	.	1c\	Qui	1e\	qui	2a\	-fi-
=133	=133	=133-	=133-	=133-	=133-	=133-	=133-	=133-	=133-
2c\	.	2r	.	.	.	.	.	1g	-ca-
1G	.	1G	qui	2B\	lo-	2d\	lo-	.	.
.	.	.	.	2.A\	-cu-	2.c/	-cu-	2c/	-tur
!LO:TX:t=P:problem:kreska pseudotaktowa	!	!	!	!	!	!	!	!	!
2F\	2	2Fny\	lo-	.	.	.	.	1cc\	qui
.	.	.	.	4A\	-t(us)	4c/	-t(us)	.	.
=134	=134	=134-	=134-	=134-	=134-	=134-	=134-	=134-	=134-
1E	.	2.E\	-cu-	1G	eſt	2G/	eſt	.	.
*	*	*	*	*	*	*	*Xij	*	*
.	.	.	.	.	.	1g	qui	2b\	lo-
.	.	4E\	-t(us)	.	.	.	.	.	.
*	*	*lig	*	*	*	*	*	*	*
!LO:SIC:v:t=custos C	!	!	!	!	!	!	!	!	!
1F	.	1F	eſt	1r	.	.	.	2.a\	-cu-
.	.	.	.	.	.	2f\	lo-	.	.
.	.	.	.	.	.	.	.	4a\	-t(us)
!LO:LB:g=original	!	!	!	!	!	!	!	!	!
=135-	=135-	=135-	=135-	=135-	=135-	=135-	=135-	=135-	=135-
1C	.	1C	.	2r	.	2.e\	-cu-	0g	eſt
.	.	.	.	1c	per	.	.	.	.
.	.	.	.	.	.	4e\	-tu(s)	.	.
*	*	*Xlig	*	*	*	*	*	*	*
!LO:TX:t=P:problem:kreska pseudotaktowa	!	!	!	!	!	!	!	!	!
1G	7\	0r	.	.	.	2d\	eſt	.	.
.	.	.	.	1B\	pro-	2e\	per	.	.
=136	=136	=136-	=136-	=136-	=136-	=136-	=136-	=136-	=136-
2B\	.	.	.	.	.	1e	pro-	2r	.
1c	.	.	.	1c	-phe-	.	.	1g	per
.	.	2r	.	.	.	1d	-phe-	.	.
!LO:TX:t=P:problem:kreska pseudotaktowa	!	!	!	!	!	!	!	!	!
!	!	!	!	!LO:SIC:v:t=custos c	!	!	!	!	!
!	!	!	!	!	!	!	!	!LO:SIC:v:t=custos e	!
2D\	6	2D\	Et	2B\	.	.	.	1fny/	pro-
!	!	!	!	!LO:LB:g=original	!	!	!	!LO:PB:g=original	!
=137	=137	=137-	=137-	=137-	=137-	=137-	=137-	=137-	=137-
2E\	.	2E\	U-	1c	-tas	1c	-tas	.	.
!	!	!LO:SIC:v:t=custos G	!	!	!	!	!	!	!
2F\	.	2F\	-nam	.	.	.	.	1e	-phe-
!	!	!LO:LB:g=original	!	!	!	!	!	!	!
!LO:TX:t=P:problem:kreska pseudotaktowa	!	!	!	!	!	!	!	!	!
1G	.	1G	San-	2r	.	2r	.	.	.
.	.	.	.	2G\	Et	2B\	Et	1d/	-taſ
=138	=138	=138-	=138-	=138-	=138-	=138-	=138-	=138-	=138-
1F	5	1F	-cta(m)	1A	U-	2c\	u-	.	.
!	!	!	!	!	!	!LO:SIC:v:t=custos e	!	!	!
.	6	.	.	.	.	2d\	-nam	1r	.
!	!	!	!	!	!	!LO:LB:g=original	!	!	!
!LO:TX:t=P:problem:kreska pseudotaktowa	!	!	!	!	!	!	!	!	!
1E	5	1E	Ca-	2B\	-nam	1e	Sanc-	.	.
.	6	.	.	2c\	San-	.	.	2r	.
=139	=139	=139-	=139-	=139-	=139-	=139-	=139-	=139-	=139-
1D	5	2.D\	-tho-	1d	-cta(m)	1f	-ta(m)	2g\	Et
.	6	.	.	.	.	.	.	2a\	U-
.	.	4D\	-li-	.	.	.	.	.	.
!LO:TX:t=P:problem:kreska pseudotaktowa	!	!	!	!	!	!	!	!	!
1AA	.	1AA	-cam	1r	.	1e	Ca-	2b\	-na(m)
.	.	.	.	.	.	.	.	1cc\	San-
=140	=140	=140-	=140-	=140-	=140-	=140-	=140-	=140-	=140-
2BB/	.	1r	.	2r	.	2d\	-tho-	.	.
2C/	.	.	.	2c\	San-	2c\	-li-	2dd\	-cta(m)
!LO:TX:t=P:problem:kreska pseudotaktowa	!	!	!	!	!	!	!	!	!
1G	7\	2r	.	2c\	-cta(m)	1G	-cam	2ee\	Ca-
.	.	2G\	San-	2B\	Ca-	.	.	2.dd\	-tho-
=141	=141	=141-	=141-	=141-	=141-	=141-	=141-	=141-	=141-
1D	7\	2G\	-cta(m)	2.d\	-tho-	2r	.	.	.
.	.	.	.	.	.	.	.	4dd\	-li-
.	.	2F#X\	Ca-	.	.	2f#X\	San-	1dd	-ca(m)
.	.	.	.	4d\	-li-	.	.	.	.
!LO:TX:t=P:problem:kreska pseudotaktowa	!	!	!	!	!	!	!	!	!
1A	6	2.A\	-tho-	1A	-ca(m)	2f#\	-cta(m)	.	.
.	5	.	.	.	.	2e\	Ca-	2r	.
.	.	4A\	-li-	.	.	.	.	.	.
=142	=142	=142-	=142-	=142-	=142-	=142-	=142-	=142-	=142-
1E	6	1.E	-ca(m)	1r	.	2.g\	-tho-	2cc\	Et
.	5	.	.	.	.	.	.	2cc\	A-
.	.	.	.	.	.	4g\	-li-	.	.
!LO:SIC:v:t=custos G	!	!	!	!	!	!	!	!	!
1C	.	.	.	2r	.	1e	-ca(m)	2b\	-po-
*	*	*	*	*	*ij	*	*	*	*
.	.	2C/	Ca-	2c\	San-	.	.	2.ee\	-ſto-
!LO:LB:g=original	!	!	!	!	!	!	!	!	!
=143-	=143-	=143-	=143-	=143-	=143-	=143-	=143-	=143-	=143-
!LO:TX:t=P:problem:kreska pseudotaktowa	!	!	!	!	!	!	!	!	!
0G	5	2.G\	-tho-	2d\	-cta(m)	2r	.	.	.
.	6	.	.	.	.	.	.	4ee\	-li-
*	*	*	*	*	*	*	*ij	*	*
.	5	.	.	2e\	Ca-	2c/	San-	2b\	-cam
.	.	4G\	-li-	.	.	.	.	.	.
.	.	1GG	-ca(m)	2.d\	-tho-	2c/	-cta(m)	2cc\	Ec-
.	.	.	.	.	.	2B/	Ca-	2.dd\	-cle-
.	.	.	.	4d\	-li-	.	.	.	.
=144	=144	=144-	=144-	=144-	=144-	=144-	=144-	=144-	=144-
!	!	!	!	!LO:TX:t=P:problem:kreska oddechu na różnych liniach [rozdzielacz słów / znak oddechu]:global	!	!	!	!	!
2A\	.	00r	.	2A,<\	-ca(m)	2.e\	-tho-	.	.
.	.	.	.	.	.	.	.	4dd\	-ſi-
*	*	*	*	*	*Xij	*	*	*	*
!	!	!	!	!	!	!	!	!LO:SIC:v:t=custos ee	!
2c\	.	.	.	2c\	Et	.	.	2ee\	-am
.	.	.	.	.	.	4e\	-li-	.	.
!	!	!	!	!	!	!	!	!LO:LB:g=original	!
2A\	.	.	.	2A/	A-	2e\	-ca(m)	2ee\	Et
*	*	*	*	*	*	*	*Xij	*	*
!LO:TX:t=P:problem:kreska pseudotaktowa	!	!	!	!LO:SIC:v:t=custos F	!	!	!	!	!
2E\	.	.	.	2E/	-po-	2g\	Et	2cc\	A-
!	!	!	!	!LO:LB:g=original	!	!	!	!	!
=145	=145	=145-	=145-	=145-	=145-	=145-	=145-	=145-	=145-
2.F\	.	.	.	2.F/	-ſto-	2fny\	A-	2g\	-po-
!	!	!	!	!	!	!LO:SIC:v:t=custos f	!	!	!
.	.	.	.	.	.	2c\	-po-	2.a\	-ſto-
4G\	.	.	.	4G/	-li-	.	.	.	.
!	!	!	!	!	!	!LO:LB:g=original	!	!	!
2A\	.	.	.	2A\	-cam	2.f\	-ſto-	.	.
.	.	.	.	.	.	.	.	4b\	-li-
!LO:TX:t=P:problem:kreska pseudotaktowa	!	!	!	!	!	!	!	!	!
2B\	.	.	.	2B\	Ec-	.	.	2cc\	-ca(m)
.	.	.	.	.	.	4g\	-li-	.	.
=146	=146	=146-	=146-	=146-	=146-	=146-	=146-	=146-	=146-
*	*	*	*	*lig	*	*	*	*	*
1c	.	1r	.	1c	-cle-	2g\	-ca(m)	1.dd	Ec-
.	.	.	.	.	.	2a\	Ec-	.	.
*	*	*	*	*col	*	*	*	*	*
!LO:TX:t=P:problem:kreska pseudotaktowa	!	!	!	!	!	!	!	!	!
1D	.	1D	Con-	2.d\	.	2.f\	-cle-	.	.
.	.	.	.	.	.	.	.	2.cc\	-cle-
*	*	*	*	*Xlig	*	*	*	*	*
.	.	.	.	4d\	-si-	4f\	-ſi-	.	.
*	*	*	*	*Xcol	*	*	*	*	*
=147	=147	=147-	=147-	=147-	=147-	=147-	=147-	=147-	=147-
1A	.	2.A\	-fi-	0c	-am	1e	-a(m)	.	.
.	.	.	.	.	.	.	.	4cc\	-ſi-
.	.	.	.	.	.	.	.	2b\	-am
.	.	4A\	-te-	.	.	.	.	.	.
!	!	!	!	!	!	!	!	!LO:N:vis=0	!
!	!	!LO:SIC:v:t=custos F	!	!	!	!	!	!	!
2E\	6	2E\	-or	.	.	2r	.	1r	.
!	!	!LO:LB:g=original	!	!	!	!	!	!	!
!LO:TX:t=P:problem:kreska pseudotaktowa	!	!	!	!	!	!	!	!	!
2F\	.	2Fny\	U-	.	.	2c\	Con-	.	.
=148	=148	=148-	=148-	=148-	=148-	=148-	=148-	=148-	=148-
2D/	.	2D/	-nu(m)	0r	.	2.f\	-fi-	1r	.
2AA/	.	2AA/	bap-	.	.	.	.	.	.
.	.	.	.	.	.	4f\	-te-	.	.
!LO:TX:t=P:problem:kreska pseudotaktowa	!	!	!	!	!	!	!	!	!
1C	.	1C	-tiſ-	.	.	1.e	-or	1g	Con-
=149	=149	=149-	=149-	=149-	=149-	=149-	=149-	=149-	=149-
1GG	.	1GG	-ma	1B	Con-	.	.	2.b\	-fi-
.	.	.	.	.	.	2g\	U-	.	.
.	.	.	.	.	.	.	.	4b\	-te-
!LO:TX:t=P:problem:kreska pseudotaktowa	!	!	!	!	!	!	!	!	!
1D	.	0r	.	2.d\	-fi-	2f\	-nu(m)	2a\	-or
.	.	.	.	.	.	2d\	bap-	2dd\	U-
.	.	.	.	4d\	-te-	.	.	.	.
=150	=150	=150-	=150-	=150-	=150-	=150-	=150-	=150-	=150-
2A\	.	.	.	2A\	-or	1f	-tiſ-	2cc\	-nu(m)
2c\	.	.	.	2c\	U-	.	.	2a\	bap-
2A\	.	1r	.	2A\	-nu(m)	2c/	-ma	1cc	-tiſ-
2E\	6	.	.	2E/	bap-	1c\	In	.	.
!LO:LB:g=original	!	!	!	!	!	!	!	!	!
=151-	=151-	=151-	=151-	=151-	=151-	=151-	=151-	=151-	=151-
1G	.	2r	.	1G	-tiſ-	.	.	1g	-ma
.	.	1G	In	.	.	1B	re-	.	.
!LO:TX:t=P:problem:kreska pseudotaktowa	!	!	!	!	!	!	!	!	!
1D	-n 4	.	.	1D	-ma	.	.	2r	.
.	7 x	2F\	re-	.	.	1A/	-mis-	1dd\	In
=152	=152	=152-	=152-	=152-	=152-	=152-	=152-	=152-	=152-
2F\	6 x	2F\	-miſ-	2r	.	.	.	.	.
2E\	6 x	2E\	-si-	1G	In	2G/	-si-	2cc\	re-
!LO:TX:t=P:problem:kreska pseudotaktowa	!	!	!	!	!	!	!	!	!
1D	-n 4	1D	-o-	.	.	1d	-o-	2b\	-miſ-
.	3 x	.	.	2F/	re-	.	.	2a\	-si-
!	!	!	!	!	!	!	!	!LO:LB:g=original	!
=153	=153	=153-	=153-	=153-	=153-	=153-	=153-	=153-	=153-
!	!	!	!	!	!	!LO:SIC:v:t=custos c	!	!	!
1C	4 x	1C	-ne(m)	2F/	-mis-	1G	-nem	2cc\	-o-
.	3 x	.	.	2E/	-si-	.	.	2g\	-nem
!	!	!	!	!	!	!LO:LB:g=original	!	!	!
!LO:TX:b:t=P:problem:w źródle # cyfrowania pod nutą	!	!	!	!	!	!	!	!	!
!	!	!	!	!LO:TX:b:t=P:problem:# below	!	!	!	!	!
2AA/	6 #	2AA/	pec-	4F#X/	-o-	2c\	pec-	2a\	pec-
!	!	!	!	!LO:SIC:v:t=custos G	!	!	!	!	!
.	.	.	.	4F#/	-nem	.	.	.	.
!	!	!	!	!LO:LB:g=original	!	!	!	!	!
!LO:TX:t=P:problem:kreska pseudotaktowa	!	!	!	!	!	!	!	!	!
2GG/	.	2GG/	-ca-	4G/	Pec-	2B\	-ca-	2b\	-ca-
.	.	.	.	4G/	-ca-	.	.	.	.
=154	=154	=154-	=154-	=154-	=154-	=154-	=154-	=154-	=154-
!LO:TX:b:t=P:problem:w źródle # cyfrowania pod nutą	!	!	!	!	!	!	!	!	!
1D	4 #	1D	-to-	2G/	-to-	1d	-to-	1a	-to-
!	!	!	!	!LO:TX:b:t=P:problem:# below	!	!	!	!	!
.	7 x	.	.	2F#X/	.	.	.	.	.
2GG/	.	2GG,</	-ru(m)	2G,</	-r(um)	1d	-ru(m)	2b,<\	-ru(m)
!LO:TX:t=P:problem:kreska pseudotaktowa	!	!	!	!	!	!	!	!	!
!LO:TX:b:Bi:t=Et expecto	!	!	!	!	!	!	!	!	!
2G\	.	2G\	Et	2B\	Et	.	.	2dd\	Et
=155	=155	=155-	=155-	=155-	=155-	=155-	=155-	=155-	=155-
2E\	6	2E\	ex-	2c\	ex-	2g\	Et	2ee\	Ex-
2F\	.	2F\	-pec-	2A\	-pec-	2a\	ex-	2cc\	-pec-
2D\	6	2D\	-to	2B\	-to	2f\	-pec-	2dd\	-to
!LO:TX:t=P:problem:kreska pseudotaktowa	!	!	!	!	!	!	!	!	!
2E\	.	2E\	re-	2G\	re-	2g\	-to	2b\	Re-
=156	=156	=156-	=156-	=156-	=156-	=156-	=156-	=156-	=156-
2C\	.	2C\	-ſur-	2A\	-ſur-	2e\	re-	2cc\	-ſur-
1D	.	1D	-rec-	1F#X	-rec-	2f#X\	-ſur-	1a	-rec-
.	.	.	.	.	.	2f#\	-rec-	.	.
!LO:TX:t=P:problem:kreska pseudotaktowa	!	!	!	!	!	!	!	!	!
!	!	!LO:SIC:v:t=custos C	!	!	!	!	!	!	!
2BB/	6	2BB/	-ti-	2G/	-ti-	2d\	-ti-	2b\	-ti-
!	!	!LO:PB:g=original	!	!	!	!	!	!	!
=157	=157	=157-	=157-	=157-	=157-	=157-	=157-	=157-	=157-
2C/	.	2C/	-o-	2E/	-o-	2e\	-o-	2g\	-o-
2AA/	.	2AA/	-nem	2e\	-ne(m)	2e\	-nem	2cc\	-ne(m)
2D\	.	2D\	mor-	2d\	mor-	2fny\	mor-	4b\	mor-
.	.	.	.	.	.	.	.	4a\	-tu-
!LO:TX:t=P:problem:kreska pseudotaktowa	!	!	!	!	!	!	!	!	!
!LO:SIC:v:t=custos E	!	!	!	!	!	!	!	!	!
2F\	6	2F\	-tu-	2A\	-tu-	2d\	-tu-	1a\	-o-
!LO:LB:g=original	!	!	!	!	!	!	!	!	!
=158	=158	=158-	=158-	=158-	=158-	=158-	=158-	=158-	=158-
!LO:TX:b:Bi:t=Et Vita(m)	!	!	!	!	!	!	!	!	!
!LO:TX:b:t=P:problem:w źródle # cyfrowania pod nutą	!	!	!	!	!	!	!	!	!
1E	3 #	1E	-o-	1B	-o-	1e	-o-	.	.
!	!	!	!	!	!	!	!	!LO:TX:b:t=P:problem:# below	!
.	7 x	.	.	.	.	.	.	2g#/	.
!LO:TX:t=P:problem:kreska pseudotaktowa	!	!	!	!	!	!	!	!	!
1AA	# x	1AA	-ru(m)	0A	-ru(m)	2e\	-ru(m)	1a	-ru(m)
.	.	.	.	.	.	2a\	Et	.	.
=159	=159	=159-	=159-	=159-	=159-	=159-	=159-	=159-	=159-
!LO:TX:b:t=P:problem:w źródle # cyfrowania pod nutą	!	!	!	!	!	!	!	!	!
1D	#	2r	.	.	.	2f#X\	vi-	2r	.
.	.	2D/	Et	.	.	4f#\	-ta(m)	2dd\	Et
.	.	.	.	.	.	4f#\	ven-	.	.
!LO:TX:t=P:problem:kreska pseudotaktowa	!	!	!	!	!	!	!	!	!
1BB	6	2BB/	Vi-	0r	.	2g\	-tu-	2gny\	vi-
!	!	!	!	!	!	!LO:SIC:v:t=custos e	!	!	!
.	.	4BB/	-ta(m)	.	.	2d\	-ri	4g\	-ta(m)
!	!	!	!	!	!	!	!	!LO:SIC:v:t=custos a	!
.	.	4BB/	Ven-	.	.	.	.	4g\	Ven-
!	!	!	!	!	!	!LO:PB:g=original	!	!LO:LB:g=original	!
=160	=160	=160-	=160-	=160-	=160-	=160-	=160-	=160-	=160-
2C/	.	2C/	-tu-	.	.	4e\	Sae-	2a\	-tu-
!	!	!	!	!	!	!LO:TX:b:t=P:problem:# below	!	!	!
.	.	.	.	.	.	4f#X\	.	.	.
2GG/	.	2GG/	-ri	.	.	1g	.	2b\	-ri
!LO:TX:t=P:problem:kreska pseudotaktowa	!	!	!	!	!	!	!	!	!
!LO:TX:b:t=P:problem:w źródle # cyfrowania pod nutą	!	!	!	!	!	!	!	!	!
1AA	5 x	2.AA/	Sae-	2r	.	.	.	2.cc\	Sae-
!	!	!	!	!	!	!LO:TX:b:t=P:problem:# below	!	!	!
.	6 #	.	.	2c\	A-	2f#X\	-cu-	.	.
.	.	4AA/	-cu-	.	.	.	.	4cc\	-cu-
=161	=161	=161-	=161-	=161-	=161-	=161-	=161-	=161-	=161-
!LO:TX:b:Bi:t=Ame(n)	!	!	!	!	!	!	!	!	!
2GG/	.	2GG/	-li	2d\	.	1g	-li	1b	-li
2G\	.	2G\	A-	2.e\	.	.	.	.	.
2.A\	.	2.A\	.	.	.	2e\	A-	0r	.
!	!	!	!	!LO:SIC:v:t=custos c	!	!	!	!	!
.	.	.	.	4d\	.	.	.	.	.
!	!	!	!	!LO:LB:g=original	!	!	!	!	!
.	.	.	.	4c\	.	2.a\	.	.	.
!LO:TX:t=P:problem:kreska pseudotaktowa	!	!	!	!	!	!	!	!	!
4G\	.	4G\	.	4B\	.	.	.	.	.
=162	=162	=162-	=162-	=162-	=162-	=162-	=162-	=162-	=162-
4F\	.	4F\	.	2A\	.	.	.	.	.
4E\	.	4E\	.	.	.	4g\	.	.	.
2F\	.	2F\	.	1c	.	4fny\	.	.	.
.	.	.	.	.	.	4e\	.	.	.
!LO:TX:t=P:problem:kreska pseudotaktowa	!	!	!	!	!	!	!	!	!
1G	4	1G	.	.	.	2d\	.	2dd\	A-
.	3	.	.	2B\	.	4g\	.	2.ee\	.
.	.	.	.	.	.	4f\	.	.	.
=163	=163	=163-	=163-	=163-	=163-	=163-	=163-	=163-	=163-
!	!	!LO:TX:a:Bi:t=Vi	!	!	!	!	!	!	!
1C	.	1C	-men	2c,<\	-men	4e\	.	.	.
!	!	!	!	!	!	!LO:TX:b:t=P:problem:# below	!	!	!
.	.	.	.	.	.	4f#X\	.	4dd\	.
*	*	*	*	*	*ij	*	*	*	*
.	.	.	.	2e\	A-	1g	.	4cc\	.
.	.	.	.	.	.	.	.	4b\	.
!	!	!LO:LB:g=original	!	!	!	!	!	!	!
!LO:TX:t=P:problem:kreska pseudotaktowa	!	!	!	!	!	!	!	!	!
!	!	!LO:TX:a:Bi:t=de	!	!	!	!	!	!	!
1D	.	1D	.	2A\	.	.	.	1a	.
!	!	!	!	!	!	!LO:TX:b:t=P:problem:# below	!	!	!
.	.	.	.	4d\	.	2f#X\	.	.	.
.	.	.	.	4c\	.	.	.	.	.
=164	=164	=164-	=164-	=164-	=164-	=164-	=164-	=164-	=164-
2.E\	.	2.E\	.	4B\	.	2.g\	.	1g	-men
.	.	.	.	4A\	.	.	.	.	.
.	.	.	.	2B\	.	.	.	.	.
4D\	.	4D\	.	.	.	4fny\	.	.	.
4C\	.	4C/	.	2.c\	.	4e\	.	2r	.
4BB\	.	4BB/	.	.	.	4d\	.	.	.
!LO:TX:t=P:problem:kreska pseudotaktowa	!	!	!	!	!	!	!	!	!
2C\	.	2C/	.	.	.	2e\	-men	2g\	A-
.	.	.	.	4B\	.	.	.	.	.
!	!	!LO:LB:g=original	!	!	!	!	!	!	!
=165	=165	=165-	=165-	=165-	=165-	=165-	=165-	=165-	=165-
!LO:TX:b:t=P:problem:w źródle # cyfrowania pod nutą	!	!	!	!	!	!	!	!	!
1D	4 #	2r	.	1A	.	2r	.	2.dd\	.
*	*	*	*	*	*	*	*ij	*	*
!	!	!	!	!	!	!LO:TX:b:t=P:problem:# below	!	!	!
.	7 x	2D\	A-	.	.	2f#X\	A-	.	.
.	.	.	.	.	.	.	.	4cc\	.
2.E\	.	2.E\	.	1G,<	-men	2.g\	.	4b\	.
.	.	.	.	.	.	.	.	4a\	.
.	.	.	.	.	.	.	.	2b\	-men
!	!	!LO:SIC:v:t=custos C	!	!	!	!	!	!	!
4D\	.	4D\	.	.	.	4fny\	.	.	.
*	*	*	*	*	*Xij	*	*	*	*
!LO:LB:g=original	!	!LO:LB:g=original	!	!	!	!	!	!	!
=166-	=166-	=166-	=166-	=166-	=166-	=166-	=166-	=166-	=166-
*	*	*	*	*	*	*	*	*	*ij
4C\	.	4C/	.	2G/	A-	4e\	.	2cc\	A-
4BB\	.	4BB/	.	.	.	4d\	.	.	.
!LO:TX:t=P:problem:kreska pseudotaktowa	!	!	!	!	!	!	!	!	!
2C\	.	2C/	.	2c\	.	2e\	.	2ee\	.
*	*	*lig	*	*	*	*	*	*	*
!LO:TX:t=P:problem:kreska pseudotaktowa	!	!	!	!	!	!	!	!	!
1D	6	1D	.	4B\	.	1f	.	2.dd\	.
.	5	.	.	4A\	.	.	.	.	.
.	.	.	.	1A\	.	.	.	.	.
.	.	.	.	.	.	.	.	4cc\	.
=167	=167	=167-	=167-	=167-	=167-	=167-	=167-	=167-	=167-
!LO:TX:b:t=P:problem:w źródle # cyfrowania pod nutą	!	!	!	!	!	!	!	!	!
!	!	!	!	!	!	!LO:SIC:v:t=custos e	!	!	!
1E	7\ #	1E	.	.	.	1e	-men	4b\	.
.	.	.	.	.	.	.	.	4a\	.
!	!	!	!	!LO:TX:b:t=P:problem:# below	!	!	!	!	!
!	!	!	!	!	!	!	!	!LO:SIC:v:t=custos cc	!
.	.	.	.	2G#X/	.	.	.	2b\	-men
*	*	*	*	*	*	*	*Xij	*	*Xij
*	*	*Xlig	*	*	*	*	*	*	*
!	!	!	!	!	!	!LO:LB:g=original	!	!LO:LB:g=original	!
!LO:TX:t=P:problem:kreska pseudotaktowa	!	!	!	!	!	!	!	!	!
1AA	# x	1AA	-men	1A	-men	2e\	A-	1cc	A-
.	.	.	.	.	.	2.a\	.	.	.
=168	=168	=168-	=168-	=168-	=168-	=168-	=168-	=168-	=168-
*	*	*	*ij	*	*ij	*	*	*	*
1D	.	1D	A-	2A\	A-	.	.	1dd	-men
.	.	.	.	.	.	4g\	.	.	.
.	.	.	.	2.d\	.	4f\	.	.	.
.	.	.	.	.	.	4e\	.	.	.
!LO:TX:t=P:problem:kreska pseudotaktowa	!	!	!	!	!	!	!	!	!
1GG	-	1GG	.	.	.	2.d\	.	2b-X\	A-
!	!	!	!	!LO:SIC:v:t=custos B	!	!	!	!	!
.	.	.	.	4c\	.	.	.	.	.
!	!	!	!	!LO:LB:g=original	!	!	!	!	!
.	.	.	.	4B-X\	.	.	.	2.dd\	.
.	.	.	.	4A\	.	4c/	.	.	.
=169	=169	=169-	=169-	=169-	=169-	=169-	=169-	=169-	=169-
1.GG	-	1.G	.	2Gny\	.	4B-X/	.	.	.
.	.	.	.	.	.	4A/	.	4cc\	.
.	.	.	.	2.d\	.	2G/	-men	4b-X\	.
.	.	.	.	.	.	.	.	4a\	.
*	*	*	*	*	*	*	*ij	*	*
.	.	.	.	.	.	2B-X/	A-	2g\	.
.	.	.	.	4c\	.	.	.	.	.
!LO:TX:t=P:problem:kreska pseudotaktowa	!	!	!	!	!	!	!	!	!
2FF#X/	6	2F#X\	.	4B-X\	.	2.d/	.	1a\	.
.	.	.	.	4A\	.	.	.	.	.
=170	=170	=170-	=170-	=170-	=170-	=170-	=170-	=170-	=170-
0GG	-	0G	.	1B-X	.	.	.	.	.
.	.	.	.	.	.	4c/	.	.	.
.	.	.	.	.	.	4B-X/	.	4g\	.
.	.	.	.	.	.	4A/	.	4f\	.
.	.	.	.	2B-\	.	2G/	.	1.g	.
.	.	.	.	1B-\	.	2d\	.	.	.
=171-	=171-	=171-	=171-	=171-	=171-	=171-	=171-	=171-	=171-
!LO:TX:b:t=P:problem:w źródle # cyfrowania pod nutą	!	!	!	!	!	!	!	!	!
0D;>	#	0D;>	-men	.	.	0d;<	-men	.	.
!	!	!	!	!	!	!	!	!LO:TX:b:t=P:problem:# below	!
.	.	.	.	4A\	.	.	.	4f#/	.
.	.	.	.	4G\	.	.	.	4e/	.
!	!	!	!	!	!	!	!	!LO:TX:b:t=P:problem:# below	!
!	!	!	!	!LO:N:vis=0	!	!	!	!LO:N:vis=0	!
.	.	.	.	1A;>	-men	.	.	1f#;>	-men
*	*	*	*Xij	*	*Xij	*	*Xij	*	*
==	==	==	==	==	==	==	==	==	==
*-	*-	*-	*-	*-	*-	*-	*-	*-	*-
!!title: @{OTL};
!!!RDF**kern: > = above
!!!RDF**kern: < = below
!!!RDF**kern: | = vertical stroke
!!!RDF**kern: N = linked
!!!RDF**kern: i = editorial accidental
!!!RDF**kern: l = terminal long
!!!EED: Wojciech Jakubiak-Danek
!!!EST: 2021-07-28
!!!URL-scan: http://repozytorium.nifc.pl/skany/pl-kk-nut--i-35
!!!ONB-nifc: UWAGA: części Mszy: 1. Kyrie, 2. Et in terra, 3. Patrem, 4. Sanctus, 5. Agnus Dei
!!!ENC: Tomasz Grochalski
!!!END: 2021-07-08
